; G-Code generated by Simplify3D(R) Version 4.1.2
; Jul 5, 2019 at 11:37:45 AM
; Settings Summary
;   processName,Process1
;   applyToModels,TEMP_TEST-210_235
;   profileName,bq Prusa i3 Hephestos (modified)
;   profileVersion,2019-06-11 00:27:50
;   baseProfile,
;   printMaterial,PET
;   printQuality,Medium
;   printExtruders,
;   extruderName,Primary Extruder
;   extruderToolheadNumber,0
;   extruderDiameter,0.4
;   extruderAutoWidth,0
;   extruderWidth,0.4
;   extrusionMultiplier,1
;   extruderUseRetract,1
;   extruderRetractionDistance,2
;   extruderExtraRestartDistance,0
;   extruderRetractionZLift,0.3
;   extruderRetractionSpeed,2598
;   extruderUseCoasting,0
;   extruderCoastingDistance,0.2
;   extruderUseWipe,0
;   extruderWipeDistance,5
;   primaryExtruder,0
;   layerHeight,0.2
;   topSolidLayers,0
;   bottomSolidLayers,0
;   perimeterOutlines,2
;   printPerimetersInsideOut,1
;   startPointOption,2
;   startPointOriginX,0
;   startPointOriginY,0
;   sequentialIslands,0
;   spiralVaseMode,0
;   firstLayerHeightPercentage,100
;   firstLayerWidthPercentage,100
;   firstLayerUnderspeed,0.8
;   useRaft,0
;   raftExtruder,0
;   raftTopLayers,2
;   raftBaseLayers,1
;   raftOffset,10
;   raftSeparationDistance,0.14
;   raftTopInfill,95
;   aboveRaftSpeedMultiplier,0.5
;   useSkirt,1
;   skirtExtruder,0
;   skirtLayers,1
;   skirtOutlines,10
;   skirtOffset,0.3
;   usePrimePillar,0
;   primePillarExtruder,999
;   primePillarWidth,12
;   primePillarLocation,7
;   primePillarSpeedMultiplier,1
;   useOozeShield,0
;   oozeShieldExtruder,999
;   oozeShieldOffset,2
;   oozeShieldOutlines,1
;   oozeShieldSidewallShape,1
;   oozeShieldSidewallAngle,30
;   oozeShieldSpeedMultiplier,1
;   infillExtruder,0
;   internalInfillPattern,Rectilinear
;   externalInfillPattern,Rectilinear
;   infillPercentage,0
;   outlineOverlapPercentage,15
;   infillExtrusionWidthPercentage,100
;   minInfillLength,5
;   infillLayerInterval,1
;   internalInfillAngles,45,-45
;   overlapInternalInfillAngles,0
;   externalInfillAngles,45,-45
;   generateSupport,0
;   supportExtruder,0
;   supportInfillPercentage,30
;   supportExtraInflation,0
;   supportBaseLayers,0
;   denseSupportExtruder,0
;   denseSupportLayers,3
;   denseSupportInfillPercentage,80
;   supportLayerInterval,1
;   supportHorizontalPartOffset,0.3
;   supportUpperSeparationLayers,1
;   supportLowerSeparationLayers,1
;   supportType,0
;   supportGridSpacing,1
;   maxOverhangAngle,45
;   supportAngles,0
;   temperatureName,Primary Extruder,BED
;   temperatureNumber,0,0
;   temperatureSetpointCount,1,1
;   temperatureSetpointLayers,1,1
;   temperatureSetpointTemperatures,235,80
;   temperatureStabilizeAtStartup,1,0
;   temperatureHeatedBed,0,1
;   fanLayers,1,2
;   fanSpeeds,0,30
;   blipFanToFullPower,1
;   adjustSpeedForCooling,0
;   minSpeedLayerTime,15
;   minCoolingSpeedSlowdown,20
;   increaseFanForCooling,1
;   minFanLayerTime,45
;   maxCoolingFanSpeed,100
;   increaseFanForBridging,1
;   bridgingFanSpeed,100
;   use5D,1
;   relativeEdistances,0
;   allowEaxisZeroing,1
;   independentExtruderAxes,0
;   includeM10123,0
;   stickySupport,1
;   applyToolheadOffsets,0
;   gcodeXoffset,0
;   gcodeYoffset,0
;   gcodeZoffset,0
;   overrideMachineDefinition,1
;   machineTypeOverride,0
;   strokeXoverride,215
;   strokeYoverride,210
;   strokeZoverride,180
;   originOffsetXoverride,0
;   originOffsetYoverride,0
;   originOffsetZoverride,0
;   homeXdirOverride,-1
;   homeYdirOverride,-1
;   homeZdirOverride,-1
;   flipXoverride,1
;   flipYoverride,-1
;   flipZoverride,1
;   toolheadOffsets,0,0|0,0|0,0|0,0|0,0|0,0
;   overrideFirmwareConfiguration,1
;   firmwareTypeOverride,RepRap (Marlin/Repetier/Sprinter)
;   GPXconfigOverride,r2
;   baudRateOverride,115200
;   overridePrinterModels,1
;   printerModelsOverride
;   startingGcode,G28 ; home all axes,G1 Z1 X10 Y0;,G1 Z0.5;,G1 Y120 Z0.1 E120 F250;,
;   layerChangeGcode,
;   retractionGcode,
;   toolChangeGcode,
;   endingGcode,G28 X0 ; home X axis,M106 S0 ; turn off fan,M104 S0 ; turn off extruder,M140 S0 ; turn off bed,M84 ; disable motors
;   exportFileFormat,gcode
;   celebration,0
;   celebrationSong,Random Song
;   postProcessing,
;   defaultSpeed,3600
;   outlineUnderspeed,0.8
;   solidInfillUnderspeed,0.9
;   supportUnderspeed,0.8
;   rapidXYspeed,4800
;   rapidZspeed,1002
;   minBridgingArea,50
;   bridgingExtraInflation,0
;   bridgingExtrusionMultiplier,1
;   bridgingSpeedMultiplier,1
;   useFixedBridgingAngle,0
;   fixedBridgingAngle,0
;   applyBridgingToPerimeters,0
;   filamentDiameters,1.75|1.75|1.75|1.75|1.75|1.75
;   filamentPricesPerKg,46|46|46|46|46|46
;   filamentDensities,1.25|1.25|1.25|1.25|1.25|1.25
;   useMinPrintHeight,0
;   minPrintHeight,0
;   useMaxPrintHeight,0
;   maxPrintHeight,0
;   useDiaphragm,0
;   diaphragmLayerInterval,20
;   robustSlicing,1
;   mergeAllIntoSolid,0
;   onlyRetractWhenCrossingOutline,1
;   retractBetweenLayers,1
;   useRetractionMinTravel,0
;   retractionMinTravel,3
;   retractWhileWiping,0
;   onlyWipeOutlines,1
;   avoidCrossingOutline,0
;   maxMovementDetourFactor,3
;   toolChangeRetractionDistance,12
;   toolChangeExtraRestartDistance,-0.5
;   toolChangeRetractionSpeed,600
;   externalThinWallType,1
;   internalThinWallType,1
;   thinWallAllowedOverlapPercentage,80
;   singleExtrusionMinLength,1
;   singleExtrusionMinPrintingWidthPercentage,50
;   singleExtrusionMaxPrintingWidthPercentage,200
;   singleExtrusionEndpointExtension,0.2
;   horizontalSizeCompensation,-0.35
G90
M82
M106 S237
M140 S80
M104 S235 T0
M109 S235 T0
G28 ; home all axes
G1 Z1 X10 Y0;
G1 Z0.5;
G1 Y120 Z0.1 E120 F250;
; process Process1
; layer 1, Z = 0.200
T0
G92 E0.0000
G1 E-2.0000 F2598
; feature skirt
; tool H0.200 W0.400
G1 Z0.300 F1002
G1 X93.750 Y94.153 F4800
G1 Z0.200 F1002
G1 E0.0000 F2598
G92 E0.0000
G1 X96.152 Y91.751 E0.1130 F2880
G1 X114.946 Y91.751 E0.7381
G1 X117.348 Y94.153 E0.8511
G1 X117.348 Y116.847 E1.6059
G1 X114.946 Y119.249 E1.7188
G1 X96.152 Y119.249 E2.3440
G1 X93.750 Y116.847 E2.4569
G1 X93.750 Y94.153 E3.2118
G92 E0.0000
G1 E-2.0000 F2598
G1 Z0.500 F1002
G1 X94.150 Y94.318 F4800
G1 Z0.200 F1002
G1 E0.0000 F2598
G92 E0.0000
G1 X96.317 Y92.151 E0.1019 F2880
G1 X114.781 Y92.151 E0.7160
G1 X116.948 Y94.318 E0.8180
G1 X116.948 Y116.682 E1.5618
G1 X114.781 Y118.849 E1.6637
G1 X96.317 Y118.849 E2.2778
G1 X94.150 Y116.682 E2.3798
G1 X94.150 Y94.318 E3.1236
G92 E0.0000
G1 E-2.0000 F2598
G1 Z0.500 F1002
G1 X94.550 Y94.484 F4800
G1 Z0.200 F1002
G1 E0.0000 F2598
G92 E0.0000
G1 X96.483 Y92.551 E0.0909 F2880
G1 X114.615 Y92.551 E0.6940
G1 X116.548 Y94.484 E0.7849
G1 X116.548 Y116.516 E1.5177
G1 X114.615 Y118.449 E1.6086
G1 X96.483 Y118.449 E2.2117
G1 X94.550 Y116.516 E2.3026
G1 X94.550 Y94.484 E3.0354
G92 E0.0000
G1 E-2.0000 F2598
G1 Z0.500 F1002
G1 X94.950 Y94.650 F4800
G1 Z0.200 F1002
G1 E0.0000 F2598
G92 E0.0000
G1 X96.649 Y92.951 E0.0799 F2880
G1 X114.449 Y92.951 E0.6720
G1 X116.148 Y94.650 E0.7519
G1 X116.148 Y116.350 E1.4736
G1 X114.449 Y118.049 E1.5535
G1 X96.649 Y118.049 E2.1456
G1 X94.950 Y116.350 E2.2255
G1 X94.950 Y94.650 E2.9472
G92 E0.0000
G1 E-2.0000 F2598
G1 Z0.500 F1002
G1 X95.350 Y94.815 F4800
G1 Z0.200 F1002
G1 E0.0000 F2598
G92 E0.0000
G1 X96.814 Y93.351 E0.0689 F2880
G1 X114.284 Y93.351 E0.6499
G1 X115.748 Y94.815 E0.7188
G1 X115.748 Y116.185 E1.4295
G1 X114.284 Y117.649 E1.4984
G1 X96.814 Y117.649 E2.0794
G1 X95.350 Y116.185 E2.1483
G1 X95.350 Y94.815 E2.8591
G92 E0.0000
G1 E-2.0000 F2598
G1 Z0.500 F1002
G1 X95.750 Y94.981 F4800
G1 Z0.200 F1002
G1 E0.0000 F2598
G92 E0.0000
G1 X96.980 Y93.751 E0.0579 F2880
G1 X114.118 Y93.751 E0.6279
G1 X115.348 Y94.981 E0.6857
G1 X115.348 Y116.019 E1.3854
G1 X114.118 Y117.249 E1.4433
G1 X96.980 Y117.249 E2.0133
G1 X95.750 Y116.019 E2.0712
G1 X95.750 Y94.981 E2.7709
G92 E0.0000
G1 E-2.0000 F2598
G1 Z0.500 F1002
G1 X96.150 Y95.147 F4800
G1 Z0.200 F1002
G1 E0.0000 F2598
G92 E0.0000
G1 X97.146 Y94.151 E0.0468 F2880
G1 X113.952 Y94.151 E0.6058
G1 X114.948 Y95.147 E0.6527
G1 X114.948 Y115.853 E1.3414
G1 X113.952 Y116.849 E1.3882
G1 X97.146 Y116.849 E1.9472
G1 X96.150 Y115.853 E1.9940
G1 X96.150 Y95.147 E2.6827
G92 E0.0000
G1 E-2.0000 F2598
G1 Z0.500 F1002
G1 X96.550 Y95.313 F4800
G1 Z0.200 F1002
G1 E0.0000 F2598
G92 E0.0000
G1 X97.312 Y94.551 E0.0358 F2880
G1 X113.787 Y94.551 E0.5838
G1 X114.548 Y95.313 E0.6196
G1 X114.548 Y115.687 E1.2973
G1 X113.787 Y116.449 E1.3331
G1 X97.312 Y116.449 E1.8811
G1 X96.550 Y115.687 E1.9169
G1 X96.550 Y95.313 E2.5946
G92 E0.0000
G1 E-2.0000 F2598
G1 Z0.500 F1002
G1 X96.950 Y95.478 F4800
G1 Z0.200 F1002
G1 E0.0000 F2598
G92 E0.0000
G1 X97.477 Y94.951 E0.0248 F2880
G1 X113.621 Y94.951 E0.5617
G1 X114.148 Y95.478 E0.5865
G1 X114.148 Y115.522 E1.2532
G1 X113.621 Y116.049 E1.2780
G1 X97.477 Y116.049 E1.8149
G1 X96.950 Y115.522 E1.8397
G1 X96.950 Y95.478 E2.5064
G92 E0.0000
G1 E-2.0000 F2598
G1 Z0.500 F1002
G1 X97.350 Y95.644 F4800
G1 Z0.200 F1002
G1 E0.0000 F2598
G92 E0.0000
G1 X97.643 Y95.351 E0.0138 F2880
G1 X113.455 Y95.351 E0.5397
G1 X113.748 Y95.644 E0.5535
G1 X113.748 Y115.356 E1.2091
G1 X113.455 Y115.649 E1.2229
G1 X97.643 Y115.649 E1.7488
G1 X97.350 Y115.356 E1.7626
G1 X97.350 Y95.644 E2.4182
G92 E0.0000
G1 E-2.0000 F2598
; feature inner perimeter
G1 Z0.500 F1002
G1 X98.450 Y96.451 F4800
G1 Z0.200 F1002
G1 E0.0000 F2598
G92 E0.0000
G1 X112.648 Y96.451 E0.4722 F2592
G1 X112.648 Y114.549 E1.0742
G1 X98.450 Y114.549 E1.5464
G1 X98.450 Y96.451 E2.1483
; feature outer perimeter
G1 X98.050 Y96.051 F4800
G92 E0.0000
G1 X113.048 Y96.051 E0.4988 F2304
G1 X113.048 Y114.949 E1.1274
G1 X98.050 Y114.949 E1.6262
G1 X98.050 Y96.051 E2.2548
G92 E0.0000
G1 E-2.0000 F2598
; layer 2, Z = 0.400
M106 S245
; feature inner perimeter
G1 Z0.500 F1002
G1 X98.450 Y96.451 F4800
G1 Z0.400 F1002
G1 E0.0000 F2598
G92 E0.0000
G1 X112.848 Y96.451 E0.4789 F3240
G1 X112.848 Y114.549 E1.0808
G1 X98.450 Y114.549 E1.5597
G1 X98.450 Y96.451 E2.1617
; feature outer perimeter
G1 X98.050 Y96.051 F4800
G92 E0.0000
G1 X113.248 Y96.051 E0.5055 F2880
G1 X113.248 Y114.949 E1.1340
G1 X98.050 Y114.949 E1.6395
G1 X98.050 Y96.051 E2.2681
G92 E0.0000
G1 E-2.0000 F2598
; layer 3, Z = 0.600
; feature inner perimeter
G1 Z0.700 F1002
G1 X98.450 Y96.451 F4800
G1 Z0.600 F1002
G1 E0.0000 F2598
G92 E0.0000
G1 X113.049 Y96.451 E0.4855 F3240
G1 X113.049 Y114.549 E1.0875
G1 X98.450 Y114.549 E1.5730
G1 X98.450 Y96.451 E2.1750
; feature outer perimeter
G1 X98.050 Y96.051 F4800
G92 E0.0000
G1 X113.448 Y96.051 E0.5122 F2880
G1 X113.448 Y114.949 E1.1407
G1 X98.050 Y114.949 E1.6529
G1 X98.050 Y96.051 E2.2814
G92 E0.0000
G1 E-2.0000 F2598
; layer 4, Z = 0.800
; feature inner perimeter
G1 Z0.900 F1002
G1 X98.450 Y96.451 F4800
G1 Z0.800 F1002
G1 E0.0000 F2598
G92 E0.0000
G1 X113.249 Y96.451 E0.4922 F3240
G1 X113.249 Y114.549 E1.0941
G1 X98.450 Y114.549 E1.5864
G1 X98.450 Y96.451 E2.1883
; feature outer perimeter
G1 X98.050 Y96.051 F4800
G92 E0.0000
G1 X113.649 Y96.051 E0.5188 F2880
G1 X113.649 Y114.949 E1.1474
G1 X98.050 Y114.949 E1.6662
G1 X98.050 Y96.051 E2.2947
G92 E0.0000
G1 E-2.0000 F2598
; layer 5, Z = 1.000
; feature inner perimeter
G1 Z1.100 F1002
G1 X98.450 Y96.451 F4800
G1 Z1.000 F1002
G1 E0.0000 F2598
G92 E0.0000
G1 X113.449 Y96.451 E0.4989 F3240
G1 X113.449 Y114.549 E1.1008
G1 X98.450 Y114.549 E1.5997
G1 X98.450 Y96.451 E2.2016
; feature outer perimeter
G1 X98.050 Y96.051 F4800
G92 E0.0000
G1 X113.849 Y96.051 E0.5255 F2880
G1 X113.849 Y114.949 E1.1540
G1 X98.050 Y114.949 E1.6795
G1 X98.050 Y96.051 E2.3080
G92 E0.0000
G1 E-2.0000 F2598
; layer 6, Z = 1.200
; feature inner perimeter
G1 Z1.300 F1002
G1 X98.450 Y96.451 F4800
G1 Z1.200 F1002
G1 E0.0000 F2598
G92 E0.0000
G1 X113.649 Y96.451 E0.5055 F3240
G1 X113.649 Y114.549 E1.1075
G1 X98.450 Y114.549 E1.6130
G1 X98.450 Y96.451 E2.2149
; feature outer perimeter
G1 X98.050 Y96.051 F4800
G92 E0.0000
G1 X114.049 Y96.051 E0.5321 F2880
G1 X114.049 Y114.949 E1.1607
G1 X98.050 Y114.949 E1.6928
G1 X98.050 Y96.051 E2.3214
G92 E0.0000
G1 E-2.0000 F2598
; layer 7, Z = 1.400
; feature inner perimeter
G1 Z1.500 F1002
G1 X98.450 Y96.451 F4800
G1 Z1.400 F1002
G1 E0.0000 F2598
G92 E0.0000
G1 X113.849 Y96.451 E0.5122 F3240
G1 X113.849 Y114.549 E1.1141
G1 X98.450 Y114.549 E1.6263
G1 X98.450 Y96.451 E2.2283
; feature outer perimeter
G1 X98.050 Y96.051 F4800
G92 E0.0000
G1 X114.249 Y96.051 E0.5388 F2880
G1 X114.249 Y114.949 E1.1673
G1 X98.050 Y114.949 E1.7061
G1 X98.050 Y96.051 E2.3347
G92 E0.0000
G1 E-2.0000 F2598
; layer 8, Z = 1.600
; feature inner perimeter
G1 Z1.700 F1002
G1 X98.450 Y96.451 F4800
G1 Z1.600 F1002
G1 E0.0000 F2598
G92 E0.0000
G1 X114.049 Y96.451 E0.5188 F3240
G1 X114.049 Y114.549 E1.1208
G1 X98.450 Y114.549 E1.6396
G1 X98.450 Y96.451 E2.2416
; feature outer perimeter
G1 X98.050 Y96.051 F4800
G92 E0.0000
G1 X114.450 Y96.051 E0.5454 F2880
G1 X114.450 Y114.949 E1.1740
G1 X98.050 Y114.949 E1.7194
G1 X98.050 Y96.051 E2.3480
G92 E0.0000
G1 E-2.0000 F2598
; layer 9, Z = 1.800
; feature inner perimeter
G1 Z1.900 F1002
G1 X98.450 Y96.451 F4800
G1 Z1.800 F1002
G1 E0.0000 F2598
G92 E0.0000
G1 X114.250 Y96.451 E0.5255 F3240
G1 X114.250 Y114.549 E1.1274
G1 X98.450 Y114.549 E1.6529
G1 X98.450 Y96.451 E2.2549
; feature outer perimeter
G1 X98.050 Y96.051 F4800
G92 E0.0000
G1 X114.650 Y96.051 E0.5521 F2880
G1 X114.650 Y114.949 E1.1807
G1 X98.050 Y114.949 E1.7328
G1 X98.050 Y96.051 E2.3613
G92 E0.0000
G1 E-2.0000 F2598
; layer 10, Z = 2.000
; feature inner perimeter
G1 Z2.100 F1002
G1 X98.450 Y96.451 F4800
G1 Z2.000 F1002
G1 E0.0000 F2598
G92 E0.0000
G1 X114.450 Y96.451 E0.5322 F3240
G1 X114.450 Y114.549 E1.1341
G1 X98.450 Y114.549 E1.6663
G1 X98.450 Y96.451 E2.2682
; feature outer perimeter
G1 X98.050 Y96.051 F4800
G92 E0.0000
G1 X114.850 Y96.051 E0.5588 F2880
G1 X114.850 Y114.949 E1.1873
G1 X98.050 Y114.949 E1.7461
G1 X98.050 Y96.051 E2.3746
G92 E0.0000
G1 E-2.0000 F2598
; layer 11, Z = 2.200
; feature inner perimeter
G1 Z2.300 F1002
G1 X98.450 Y96.451 F4800
G1 Z2.200 F1002
G1 E0.0000 F2598
G92 E0.0000
G1 X114.650 Y96.451 E0.5388 F3240
G1 X114.650 Y114.549 E1.1408
G1 X98.450 Y114.549 E1.6796
G1 X98.450 Y96.451 E2.2815
; feature outer perimeter
G1 X98.050 Y96.051 F4800
G92 E0.0000
G1 X115.050 Y96.051 E0.5654 F2880
G1 X115.050 Y114.949 E1.1940
G1 X98.050 Y114.949 E1.7594
G1 X98.050 Y96.051 E2.3880
G92 E0.0000
G1 E-2.0000 F2598
; layer 12, Z = 2.400
; feature inner perimeter
G1 Z2.500 F1002
G1 X98.450 Y96.451 F4800
G1 Z2.400 F1002
G1 E0.0000 F2598
G92 E0.0000
G1 X101.066 Y96.451 E0.0870 F3240
G1 X101.066 Y95.451 E0.1203
G1 X102.854 Y95.451 E0.1797
G1 X102.854 Y96.451 E0.2130
G1 X106.240 Y96.451 E0.3256
G1 X106.240 Y95.451 E0.3589
G1 X107.528 Y95.451 E0.4017
G1 X107.528 Y96.451 E0.4350
G1 X111.162 Y96.451 E0.5558
G1 X111.162 Y95.451 E0.5891
G1 X112.456 Y95.451 E0.6322
G1 X112.456 Y96.451 E0.6654
G1 X114.850 Y96.451 E0.7450
G1 X114.850 Y114.549 E1.3470
G1 X98.450 Y114.549 E1.8925
G1 X98.450 Y96.451 E2.4944
; feature outer perimeter
G1 X98.050 Y96.051 F4800
G92 E0.0000
G1 X100.666 Y96.051 E0.0870 F2880
G1 X100.666 Y95.051 E0.1203
G1 X103.254 Y95.051 E0.2063
G1 X103.254 Y96.051 E0.2396
G1 X105.840 Y96.051 E0.3256
G1 X105.840 Y95.051 E0.3589
G1 X107.928 Y95.051 E0.4283
G1 X107.928 Y96.051 E0.4616
G1 X110.762 Y96.051 E0.5558
G1 X110.762 Y95.051 E0.5891
G1 X112.856 Y95.051 E0.6588
G1 X112.856 Y96.051 E0.6920
G1 X115.250 Y96.051 E0.7716
G1 X115.250 Y114.949 E1.4002
G1 X98.050 Y114.949 E1.9723
G1 X98.050 Y96.051 E2.6008
G92 E0.0000
G1 E-2.0000 F2598
; layer 13, Z = 2.600
; feature inner perimeter
G1 Z2.700 F1002
G1 X98.450 Y96.451 F4800
G1 Z2.600 F1002
G1 E0.0000 F2598
G92 E0.0000
G1 X101.066 Y96.451 E0.0870 F3240
G1 X101.066 Y95.451 E0.1203
G1 X102.854 Y95.451 E0.1797
G1 X102.854 Y96.451 E0.2130
G1 X106.064 Y96.451 E0.3198
G1 X106.063 Y95.451 E0.3530
G1 X107.703 Y95.451 E0.4076
G1 X107.702 Y96.451 E0.4408
G1 X110.986 Y96.451 E0.5500
G1 X110.985 Y95.451 E0.5833
G1 X112.627 Y95.451 E0.6379
G1 X112.627 Y96.451 E0.6711
G1 X115.050 Y96.451 E0.7518
G1 X115.050 Y114.549 E1.3537
G1 X98.450 Y114.549 E1.9058
G1 X98.450 Y96.451 E2.5078
