; G-Code generated by Simplify3D(R) Version 4.1.2
; Jul 1, 2019 at 7:35:47 AM
; Settings Summary
;   processName,Process1
;   applyToModels,TEMP_TEST-210_235
;   profileName,BEETHEFIRST+.4 (modified)
;   profileVersion,2019-06-28 18:44:38
;   baseProfile,BEEVERYCREATIVE BEETHEFIRST
;   printMaterial,PET
;   printQuality,Fast
;   printExtruders,
;   extruderName,Primary Extruder
;   extruderToolheadNumber,0
;   extruderDiameter,0.4
;   extruderAutoWidth,0
;   extruderWidth,0.4
;   extrusionMultiplier,1
;   extruderUseRetract,1
;   extruderRetractionDistance,1.5
;   extruderExtraRestartDistance,-0.3
;   extruderRetractionZLift,0
;   extruderRetractionSpeed,3600
;   extruderUseCoasting,0
;   extruderCoastingDistance,0.2
;   extruderUseWipe,0
;   extruderWipeDistance,5
;   primaryExtruder,0
;   layerHeight,0.3
;   topSolidLayers,4
;   bottomSolidLayers,4
;   perimeterOutlines,2
;   printPerimetersInsideOut,1
;   startPointOption,2
;   startPointOriginX,0
;   startPointOriginY,0
;   sequentialIslands,0
;   spiralVaseMode,0
;   firstLayerHeightPercentage,100
;   firstLayerWidthPercentage,100
;   firstLayerUnderspeed,0.6
;   useRaft,0
;   raftExtruder,0
;   raftTopLayers,3
;   raftBaseLayers,2
;   raftOffset,3
;   raftSeparationDistance,0.14
;   raftTopInfill,100
;   aboveRaftSpeedMultiplier,0.3
;   useSkirt,1
;   skirtExtruder,0
;   skirtLayers,1
;   skirtOutlines,10
;   skirtOffset,0.1
;   usePrimePillar,0
;   primePillarExtruder,999
;   primePillarWidth,12
;   primePillarLocation,7
;   primePillarSpeedMultiplier,1
;   useOozeShield,0
;   oozeShieldExtruder,999
;   oozeShieldOffset,2
;   oozeShieldOutlines,1
;   oozeShieldSidewallShape,1
;   oozeShieldSidewallAngle,30
;   oozeShieldSpeedMultiplier,1
;   infillExtruder,0
;   internalInfillPattern,Rectilinear
;   externalInfillPattern,Rectilinear
;   infillPercentage,0
;   outlineOverlapPercentage,25
;   infillExtrusionWidthPercentage,100
;   minInfillLength,5
;   infillLayerInterval,1
;   internalInfillAngles,45,-45
;   overlapInternalInfillAngles,0
;   externalInfillAngles,45,-45
;   generateSupport,0
;   supportExtruder,0
;   supportInfillPercentage,8
;   supportExtraInflation,0
;   supportBaseLayers,1
;   denseSupportExtruder,0
;   denseSupportLayers,2
;   denseSupportInfillPercentage,90
;   supportLayerInterval,1
;   supportHorizontalPartOffset,0.3
;   supportUpperSeparationLayers,1
;   supportLowerSeparationLayers,1
;   supportType,0
;   supportGridSpacing,4
;   maxOverhangAngle,45
;   supportAngles,45,45,45,-45,-45,-45,-45
;   temperatureName,Primary Extruder Temperature
;   temperatureNumber,0
;   temperatureSetpointCount,1
;   temperatureSetpointLayers,1
;   temperatureSetpointTemperatures,235
;   temperatureStabilizeAtStartup,1
;   temperatureHeatedBed,0
;   fanLayers,1,2
;   fanSpeeds,0,60
;   blipFanToFullPower,1
;   adjustSpeedForCooling,0
;   minSpeedLayerTime,8
;   minCoolingSpeedSlowdown,20
;   increaseFanForCooling,1
;   minFanLayerTime,10
;   maxCoolingFanSpeed,80
;   increaseFanForBridging,1
;   bridgingFanSpeed,80
;   use5D,1
;   relativeEdistances,0
;   allowEaxisZeroing,0
;   independentExtruderAxes,0
;   includeM10123,0
;   stickySupport,1
;   applyToolheadOffsets,0
;   gcodeXoffset,0
;   gcodeYoffset,0
;   gcodeZoffset,0
;   overrideMachineDefinition,1
;   machineTypeOverride,0
;   strokeXoverride,190
;   strokeYoverride,135
;   strokeZoverride,125
;   originOffsetXoverride,95
;   originOffsetYoverride,67.5
;   originOffsetZoverride,0
;   homeXdirOverride,-1
;   homeYdirOverride,-1
;   homeZdirOverride,-1
;   flipXoverride,1
;   flipYoverride,-1
;   flipZoverride,1
;   toolheadOffsets,0,0|0,0|0,0|0,0|0,0|0,0
;   overrideFirmwareConfiguration,0
;   firmwareTypeOverride,RepRap (Marlin/Repetier/Sprinter)
;   GPXconfigOverride,r2
;   baudRateOverride,115200
;   overridePrinterModels,1
;   printerModelsOverride
;   startingGcode,M300,G28,M206 X500,M107,M104 S[extruder0_temperature],G92 E,M642 W1,M130 T6 U1.3 V80,G1 X-98.0 Y-20.0 Z5.0 F3000,G1 Y-68.0 Z0.3,G1 X-98.0 Y0.0 F500 E20,G92 E
;   layerChangeGcode,
;   retractionGcode,
;   toolChangeGcode,
;   endingGcode,M300,M104 S0,G28 X,G28 Z,G1 Y65,M107,M641 A1
;   exportFileFormat,gcode
;   celebration,0
;   celebrationSong,Random Song
;   postProcessing,
;   defaultSpeed,2400
;   outlineUnderspeed,0.5
;   solidInfillUnderspeed,0.8
;   supportUnderspeed,0.8
;   rapidXYspeed,3600
;   rapidZspeed,300
;   minBridgingArea,50
;   bridgingExtraInflation,0
;   bridgingExtrusionMultiplier,1
;   bridgingSpeedMultiplier,1
;   useFixedBridgingAngle,0
;   fixedBridgingAngle,0
;   applyBridgingToPerimeters,0
;   filamentDiameters,1.75|1.75|1.75|1.75|1.75|1.75
;   filamentPricesPerKg,46|46|46|46|46|46
;   filamentDensities,1.25|1.25|1.25|1.25|1.25|1.25
;   useMinPrintHeight,0
;   minPrintHeight,0
;   useMaxPrintHeight,0
;   maxPrintHeight,0
;   useDiaphragm,0
;   diaphragmLayerInterval,20
;   robustSlicing,1
;   mergeAllIntoSolid,0
;   onlyRetractWhenCrossingOutline,1
;   retractBetweenLayers,1
;   useRetractionMinTravel,0
;   retractionMinTravel,3
;   retractWhileWiping,0
;   onlyWipeOutlines,1
;   avoidCrossingOutline,0
;   maxMovementDetourFactor,3
;   toolChangeRetractionDistance,12
;   toolChangeExtraRestartDistance,-0.5
;   toolChangeRetractionSpeed,600
;   externalThinWallType,1
;   internalThinWallType,2
;   thinWallAllowedOverlapPercentage,80
;   singleExtrusionMinLength,1
;   singleExtrusionMinPrintingWidthPercentage,50
;   singleExtrusionMaxPrintingWidthPercentage,200
;   singleExtrusionEndpointExtension,0.2
;   horizontalSizeCompensation,0
G90
M82
M106 S0
M300
G28
M206 X500
M107
M104 S235
G92 E
M642 W1
M130 T6 U1.3 V80
G1 X-98.0 Y-20.0 Z5.0 F3000
G1 Y-68.0 Z0.3
G1 X-98.0 Y0.0 F500 E20
G92 E
; process Process1
; layer 1, Z = 0.300
T0
G1 E-1.5000 F3600
; feature skirt
; tool H0.300 W0.400
G1 Z0.300 F300
G1 X10.048 Y-11.114 F3600
G1 E-0.3000 F3600
G1 X10.048 Y12.114 E0.8589 F1440
G1 X7.764 Y14.399 E1.0201
G1 X-11.615 Y14.399 E1.9869
G1 X-13.900 Y12.114 E2.1481
G1 X-13.900 Y-11.114 E3.3070
G1 X-11.615 Y-13.399 E3.4682
G1 X7.764 Y-13.399 E4.4350
G1 X10.048 Y-11.114 E4.5962
G1 E3.0962 F3600
G1 X9.648 Y-10.949 F3600
G1 E4.2962 F3600
G1 X9.648 Y11.949 E5.4385 F1440
G1 X7.598 Y13.999 E5.5832
G1 X-11.450 Y13.999 E6.5335
G1 X-13.500 Y11.949 E6.6781
G1 X-13.500 Y-10.949 E7.8205
G1 X-11.450 Y-12.999 E7.9652
G1 X7.598 Y-12.999 E8.9155
G1 X9.648 Y-10.949 E9.0601
G1 E7.5601 F3600
G1 X9.248 Y-10.783 F3600
G1 E8.7601 F3600
G1 X9.248 Y11.783 E9.8859 F1440
G1 X7.432 Y13.599 E10.0141
G1 X-11.284 Y13.599 E10.9478
G1 X-13.100 Y11.783 E11.0759
G1 X-13.100 Y-10.783 E12.2018
G1 X-11.284 Y-12.599 E12.3299
G1 X7.432 Y-12.599 E13.2637
G1 X9.248 Y-10.783 E13.3918
G1 E11.8918 F3600
G1 X8.848 Y-10.617 F3600
G1 E13.0918 F3600
G1 X8.848 Y11.617 E14.2011 F1440
G1 X7.267 Y13.199 E14.3127
G1 X-11.118 Y13.199 E15.2299
G1 X-12.700 Y11.617 E15.3415
G1 X-12.700 Y-10.617 E16.4508
G1 X-11.118 Y-12.199 E16.5624
G1 X7.267 Y-12.199 E17.4796
G1 X8.848 Y-10.617 E17.5912
G1 E16.0912 F3600
G1 X8.448 Y-10.452 F3600
G1 E17.2912 F3600
G1 X8.448 Y11.452 E18.3840 F1440
G1 X7.101 Y12.799 E18.4790
G1 X-10.953 Y12.799 E19.3797
G1 X-12.300 Y11.452 E19.4748
G1 X-12.300 Y-10.452 E20.5675
G1 X-10.953 Y-11.799 E20.6626
G1 X7.101 Y-11.799 E21.5633
G1 X8.448 Y-10.452 E21.6584
G1 E20.1584 F3600
G1 X8.048 Y-10.286 F3600
G1 E21.3584 F3600
G1 X8.048 Y11.286 E22.4346 F1440
G1 X6.935 Y12.399 E22.5131
G1 X-10.787 Y12.399 E23.3973
G1 X-11.900 Y11.286 E23.4758
G1 X-11.900 Y-10.286 E24.5520
G1 X-10.787 Y-11.399 E24.6306
G1 X6.935 Y-11.399 E25.5147
G1 X8.048 Y-10.286 E25.5933
G1 E24.0933 F3600
G1 X7.648 Y-10.120 F3600
G1 E25.2933 F3600
G1 X7.648 Y11.120 E26.3530 F1440
G1 X6.769 Y11.999 E26.4150
G1 X-10.621 Y11.999 E27.2826
G1 X-11.500 Y11.120 E27.3446
G1 X-11.500 Y-10.120 E28.4043
G1 X-10.621 Y-10.999 E28.4663
G1 X6.769 Y-10.999 E29.3339
G1 X7.648 Y-10.120 E29.3959
G1 E27.8959 F3600
G1 X7.248 Y-9.955 F3600
G1 E29.0959 F3600
G1 X7.248 Y10.955 E30.1391 F1440
G1 X6.604 Y11.599 E30.1845
G1 X-10.456 Y11.599 E31.0356
G1 X-11.100 Y10.955 E31.0811
G1 X-11.100 Y-9.955 E32.1243
G1 X-10.456 Y-10.599 E32.1697
G1 X6.604 Y-10.599 E33.0208
G1 X7.248 Y-9.955 E33.0663
G1 E31.5663 F3600
G1 X6.848 Y-9.789 F3600
G1 E32.7663 F3600
G1 X6.848 Y10.789 E33.7929 F1440
G1 X6.438 Y11.199 E33.8219
G1 X-10.290 Y11.199 E34.6564
G1 X-10.700 Y10.789 E34.6853
G1 X-10.700 Y-9.789 E35.7120
G1 X-10.290 Y-10.199 E35.7409
G1 X6.438 Y-10.199 E36.5755
G1 X6.848 Y-9.789 E36.6044
G1 E35.1044 F3600
G1 X6.448 Y-9.623 F3600
G1 E36.3044 F3600
G1 X6.448 Y10.623 E37.3145 F1440
G1 X6.272 Y10.799 E37.3269
G1 X-10.124 Y10.799 E38.1449
G1 X-10.300 Y10.623 E38.1573
G1 X-10.300 Y-9.623 E39.1675
G1 X-10.124 Y-9.799 E39.1799
G1 X6.272 Y-9.799 E39.9979
G1 X6.448 Y-9.623 E40.0103
G1 E38.5103 F3600
; feature inner perimeter
G1 X5.548 Y-8.899 F3600
G1 E39.7103 F3600
G1 X5.548 Y9.899 E40.6481 F1080
G1 X-9.400 Y9.899 E41.3939
G1 X-9.400 Y-8.899 E42.3317
G1 X5.548 Y-8.899 E43.0775
; feature outer perimeter
G1 X5.948 Y-9.299 F3600
G1 X5.948 Y10.299 E44.0552 F720
G1 X-9.800 Y10.299 E44.8409
G1 X-9.800 Y-9.299 E45.8187
G1 X5.948 Y-9.299 E46.6043
; feature solid layer
G1 X4.977 Y-8.599 F3600
G1 X5.248 Y-8.328 E46.6234 F1152
G1 X5.248 Y-7.763 E46.6517
G1 X4.412 Y-8.599 E46.7107
G1 X3.846 Y-8.599 E46.7389
G1 X5.248 Y-7.197 E46.8378
G1 X5.248 Y-6.631 E46.8660
G1 X3.280 Y-8.599 E47.0049
G1 X2.715 Y-8.599 E47.0331
G1 X5.248 Y-6.066 E47.2118
G1 X5.248 Y-5.500 E47.2401
G1 X2.149 Y-8.599 E47.4587
G1 X1.583 Y-8.599 E47.4869
G1 X5.248 Y-4.934 E47.7455
G1 X5.248 Y-4.369 E47.7737
G1 X1.018 Y-8.599 E48.0722
G1 X0.452 Y-8.599 E48.1004
G1 X5.248 Y-3.803 E48.4388
G1 X5.248 Y-3.237 E48.4671
G1 X-0.114 Y-8.599 E48.8454
G1 X-0.679 Y-8.599 E48.8736
G1 X5.248 Y-2.671 E49.2918
G1 X5.248 Y-2.106 E49.3200
G1 X-1.245 Y-8.599 E49.7782
G1 X-1.811 Y-8.599 E49.8064
G1 X5.248 Y-1.540 E50.3044
G1 X5.248 Y-0.974 E50.3327
G1 X-2.376 Y-8.599 E50.8706
G1 X-2.942 Y-8.599 E50.8988
G1 X5.248 Y-0.409 E51.4767
G1 X5.248 Y0.157 E51.5049
G1 X-3.508 Y-8.599 E52.1227
G1 X-4.074 Y-8.599 E52.1509
G1 X5.248 Y0.723 E52.8086
G1 X5.248 Y1.288 E52.8368
G1 X-4.639 Y-8.599 E53.5345
G1 X-5.205 Y-8.599 E53.5627
G1 X5.248 Y1.854 E54.3002
G1 X5.248 Y2.420 E54.3284
G1 X-5.771 Y-8.599 E55.1058
G1 X-6.336 Y-8.599 E55.1341
G1 X5.248 Y2.985 E55.9514
G1 X5.248 Y3.551 E55.9796
G1 X-6.902 Y-8.599 E56.8369
G1 X-7.468 Y-8.599 E56.8651
G1 X5.248 Y4.117 E57.7623
G1 X5.248 Y4.682 E57.7905
G1 X-8.033 Y-8.599 E58.7276
G1 X-8.599 Y-8.599 E58.7558
G1 X5.248 Y5.248 E59.7328
G1 X5.248 Y5.814 E59.7610
G1 X-9.100 Y-8.534 E60.7733
G1 X-9.100 Y-7.969 E60.8016
G1 X5.248 Y6.380 E61.8139
G1 X5.248 Y6.945 E61.8421
G1 X-9.100 Y-7.403 E62.8545
G1 X-9.100 Y-6.837 E62.8827
G1 X5.248 Y7.511 E63.8950
G1 X5.248 Y8.077 E63.9233
G1 X-9.100 Y-6.272 E64.9356
G1 X-9.100 Y-5.706 E64.9638
G1 X5.248 Y8.642 E65.9762
G1 X5.248 Y9.208 E66.0044
G1 X-9.100 Y-5.140 E67.0167
G1 X-9.100 Y-4.575 E67.0449
G1 X5.074 Y9.599 E68.0450
G1 X4.508 Y9.599 E68.0732
G1 X-9.100 Y-4.009 E69.0333
G1 X-9.100 Y-3.443 E69.0615
G1 X3.942 Y9.599 E69.9817
G1 X3.376 Y9.599 E70.0099
G1 X-9.100 Y-2.877 E70.8902
G1 X-9.100 Y-2.312 E70.9184
G1 X2.811 Y9.599 E71.7588
G1 X2.245 Y9.599 E71.7870
G1 X-9.100 Y-1.746 E72.5875
G1 X-9.100 Y-1.180 E72.6157
G1 X1.679 Y9.599 E73.3762
G1 X1.114 Y9.599 E73.4045
G1 X-9.100 Y-0.615 E74.1251
G1 X-9.100 Y-0.049 E74.1533
G1 X0.548 Y9.599 E74.8340
G1 X-0.018 Y9.599 E74.8623
G1 X-9.100 Y0.517 E75.5031
G1 X-9.100 Y1.082 E75.5313
G1 X-0.583 Y9.599 E76.1322
G1 X-1.149 Y9.599 E76.1604
G1 X-9.100 Y1.648 E76.7214
G1 X-9.100 Y2.214 E76.7496
G1 X-1.715 Y9.599 E77.2707
G1 X-2.280 Y9.599 E77.2989
G1 X-9.100 Y2.779 E77.7801
G1 X-9.100 Y3.345 E77.8083
G1 X-2.846 Y9.599 E78.2496
G1 X-3.412 Y9.599 E78.2778
G1 X-9.100 Y3.911 E78.6791
G1 X-9.100 Y4.476 E78.7073
G1 X-3.977 Y9.599 E79.0688
G1 X-4.543 Y9.599 E79.0970
G1 X-9.100 Y5.042 E79.4185
G1 X-9.100 Y5.608 E79.4467
G1 X-5.109 Y9.599 E79.7283
G1 X-5.674 Y9.599 E79.7565
G1 X-9.100 Y6.173 E79.9982
G1 X-9.100 Y6.739 E80.0265
G1 X-6.240 Y9.599 E80.2282
G1 X-6.806 Y9.599 E80.2564
G1 X-9.100 Y7.305 E80.4183
G1 X-9.100 Y7.871 E80.4465
G1 X-7.372 Y9.599 E80.5685
G1 X-7.937 Y9.599 E80.5967
G1 X-9.100 Y8.436 E80.6787
G1 X-9.100 Y9.002 E80.7070
G1 X-8.503 Y9.599 E80.7491
G1 X-9.069 Y9.599 E80.7773
G1 X-9.100 Y9.568 E80.7795
G1 E79.2795 F3600
; layer 2, Z = 0.600
M106 S255
G4 P500
M106 S153
; feature inner perimeter
G1 Z0.600 F300
G1 X-9.400 Y9.899 F3600
G1 E80.4795 F3600
G1 X-9.400 Y-8.899 E81.4174 F1800
G1 X5.848 Y-8.899 E82.1781
G1 X5.848 Y9.899 E83.1160
G1 X-9.400 Y9.899 E83.8767
; feature outer perimeter
G1 X-9.800 Y10.299 F3600
G1 X-9.800 Y-9.299 E84.8545 F1200
G1 X6.248 Y-9.299 E85.6551
G1 X6.248 Y10.299 E86.6329
G1 X-9.800 Y10.299 E87.4335
; feature solid layer
G1 X5.109 Y9.599 F3600
G1 X5.548 Y9.159 E87.4645 F1920
G1 X5.548 Y8.594 E87.4928
G1 X4.543 Y9.599 E87.5637
G1 X3.977 Y9.599 E87.5919
G1 X5.548 Y8.028 E87.7027
G1 X5.548 Y7.462 E87.7310
G1 X3.412 Y9.599 E87.8817
G1 X2.846 Y9.599 E87.9099
G1 X5.548 Y6.897 E88.1006
G1 X5.548 Y6.331 E88.1288
G1 X2.280 Y9.599 E88.3594
G1 X1.715 Y9.599 E88.3876
G1 X5.548 Y5.765 E88.6581
G1 X5.548 Y5.200 E88.6863
G1 X1.149 Y9.599 E88.9967
G1 X0.583 Y9.599 E89.0250
G1 X5.548 Y4.634 E89.3753
G1 X5.548 Y4.068 E89.4035
G1 X0.018 Y9.599 E89.7937
G1 X-0.548 Y9.599 E89.8219
G1 X5.548 Y3.503 E90.2521
G1 X5.548 Y2.937 E90.2803
G1 X-1.114 Y9.599 E90.7504
G1 X-1.679 Y9.599 E90.7786
G1 X5.548 Y2.371 E91.2885
G1 X5.548 Y1.805 E91.3168
G1 X-2.245 Y9.599 E91.8666
G1 X-2.811 Y9.599 E91.8949
G1 X5.548 Y1.240 E92.4846
G1 X5.548 Y0.674 E92.5129
G1 X-3.376 Y9.599 E93.1426
G1 X-3.942 Y9.599 E93.1708
G1 X5.548 Y0.108 E93.8404
G1 X5.548 Y-0.457 E93.8686
G1 X-4.508 Y9.599 E94.5781
G1 X-5.073 Y9.599 E94.6064
G1 X5.548 Y-1.023 E95.3558
G1 X5.548 Y-1.589 E95.3840
G1 X-5.639 Y9.599 E96.1734
G1 X-6.205 Y9.599 E96.2016
G1 X5.548 Y-2.154 E97.0308
G1 X5.548 Y-2.720 E97.0591
G1 X-6.771 Y9.599 E97.9282
G1 X-7.336 Y9.599 E97.9565
G1 X5.548 Y-3.286 E98.8655
G1 X5.548 Y-3.851 E98.8938
G1 X-7.902 Y9.599 E99.8428
G1 X-8.468 Y9.599 E99.8710
G1 X5.548 Y-4.417 E100.8599
G1 X5.548 Y-4.983 E100.8881
G1 X-9.033 Y9.599 E101.9169
G1 X-9.100 Y9.599 E101.9203
G1 X-9.100 Y9.100 E101.9452
G1 X5.548 Y-5.548 E102.9787
G1 X5.548 Y-6.114 E103.0069
G1 X-9.100 Y8.534 E104.0404
G1 X-9.100 Y7.969 E104.0687
G1 X5.548 Y-6.680 E105.1022
G1 X5.548 Y-7.245 E105.1304
G1 X-9.100 Y7.403 E106.1639
G1 X-9.100 Y6.837 E106.1922
G1 X5.548 Y-7.811 E107.2257
G1 X5.548 Y-8.377 E107.2539
G1 X-9.100 Y6.272 E108.2874
G1 X-9.100 Y5.706 E108.3157
G1 X5.205 Y-8.599 E109.3249
G1 X4.639 Y-8.599 E109.3532
G1 X-9.100 Y5.140 E110.3225
G1 X-9.100 Y4.575 E110.3508
G1 X4.074 Y-8.599 E111.2802
G1 X3.508 Y-8.599 E111.3085
G1 X-9.100 Y4.009 E112.1980
G1 X-9.100 Y3.443 E112.2262
G1 X2.942 Y-8.599 E113.0759
G1 X2.376 Y-8.599 E113.1041
G1 X-9.100 Y2.877 E113.9138
G1 X-9.100 Y2.312 E113.9420
G1 X1.811 Y-8.599 E114.7119
G1 X1.245 Y-8.599 E114.7401
G1 X-9.100 Y1.746 E115.4700
G1 X-9.100 Y1.180 E115.4982
G1 X0.679 Y-8.599 E116.1882
G1 X0.114 Y-8.599 E116.2164
G1 X-9.100 Y0.615 E116.8665
G1 X-9.100 Y0.049 E116.8947
G1 X-0.452 Y-8.599 E117.5049
G1 X-1.018 Y-8.599 E117.5331
G1 X-9.100 Y-0.517 E118.1034
G1 X-9.100 Y-1.082 E118.1316
G1 X-1.583 Y-8.599 E118.6619
G1 X-2.149 Y-8.599 E118.6902
G1 X-9.100 Y-1.648 E119.1806
G1 X-9.100 Y-2.214 E119.2088
G1 X-2.715 Y-8.599 E119.6593
G1 X-3.280 Y-8.599 E119.6876
G1 X-9.100 Y-2.779 E120.0982
G1 X-9.100 Y-3.345 E120.1264
G1 X-3.846 Y-8.599 E120.4971
G1 X-4.412 Y-8.599 E120.5253
G1 X-9.100 Y-3.911 E120.8561
G1 X-9.100 Y-4.476 E120.8843
G1 X-4.977 Y-8.599 E121.1752
G1 X-5.543 Y-8.599 E121.2034
G1 X-9.100 Y-5.042 E121.4544
G1 X-9.100 Y-5.608 E121.4826
G1 X-6.109 Y-8.599 E121.6936
G1 X-6.674 Y-8.599 E121.7218
G1 X-9.100 Y-6.173 E121.8930
G1 X-9.100 Y-6.739 E121.9212
G1 X-7.240 Y-8.599 E122.0524
G1 X-7.806 Y-8.599 E122.0806
G1 X-9.100 Y-7.305 E122.1720
G1 X-9.100 Y-7.871 E122.2002
G1 X-8.372 Y-8.599 E122.2516
G1 X-8.937 Y-8.599 E122.2798
G1 X-9.100 Y-8.436 E122.2913
G1 E120.7913 F3600
; layer 3, Z = 0.900
