; G-Code generated by Simplify3D(R) Version 4.0.0
; Mar 26, 2018 at 8:22:25 PM
; Settings Summary
;   processName,Process1
;   applyToModels,TEMP_TEST-235_255
;   profileName,MENDEL maZE (modified)
;   profileVersion,2018-03-23 15:55:39
;   baseProfile,bq Prusa i3 Hephestos
;   printMaterial,
;   printQuality,
;   printExtruders,
;   extruderName,Primary Extruder
;   extruderToolheadNumber,0
;   extruderDiameter,0.4
;   extruderAutoWidth,0
;   extruderWidth,0.4
;   extrusionMultiplier,1
;   extruderUseRetract,1
;   extruderRetractionDistance,5
;   extruderExtraRestartDistance,0
;   extruderRetractionZLift,0
;   extruderRetractionSpeed,1500
;   extruderUseCoasting,1
;   extruderCoastingDistance,0.5
;   extruderUseWipe,1
;   extruderWipeDistance,5
;   primaryExtruder,0
;   layerHeight,0.3
;   topSolidLayers,0
;   bottomSolidLayers,0
;   perimeterOutlines,2
;   printPerimetersInsideOut,1
;   startPointOption,2
;   startPointOriginX,0
;   startPointOriginY,0
;   sequentialIslands,0
;   spiralVaseMode,0
;   firstLayerHeightPercentage,100
;   firstLayerWidthPercentage,100
;   firstLayerUnderspeed,0.8
;   useRaft,0
;   raftExtruder,0
;   raftTopLayers,3
;   raftBaseLayers,2
;   raftOffset,8
;   raftSeparationDistance,0.18
;   raftTopInfill,100
;   aboveRaftSpeedMultiplier,0.3
;   useSkirt,1
;   skirtExtruder,0
;   skirtLayers,1
;   skirtOutlines,10
;   skirtOffset,0
;   usePrimePillar,0
;   primePillarExtruder,999
;   primePillarWidth,12
;   primePillarLocation,7
;   primePillarSpeedMultiplier,1
;   useOozeShield,0
;   oozeShieldExtruder,999
;   oozeShieldOffset,2
;   oozeShieldOutlines,1
;   oozeShieldSidewallShape,1
;   oozeShieldSidewallAngle,30
;   oozeShieldSpeedMultiplier,1
;   infillExtruder,0
;   internalInfillPattern,Triangular
;   externalInfillPattern,Rectilinear
;   infillPercentage,0
;   outlineOverlapPercentage,20
;   infillExtrusionWidthPercentage,100
;   minInfillLength,10
;   infillLayerInterval,1
;   internalInfillAngles,0,60,-60
;   overlapInternalInfillAngles,1
;   externalInfillAngles,45,-45
;   generateSupport,0
;   supportExtruder,0
;   supportInfillPercentage,10
;   supportExtraInflation,0
;   supportBaseLayers,1
;   denseSupportExtruder,0
;   denseSupportLayers,4
;   denseSupportInfillPercentage,100
;   supportLayerInterval,1
;   supportHorizontalPartOffset,0.8
;   supportUpperSeparationLayers,1
;   supportLowerSeparationLayers,1
;   supportType,1
;   supportGridSpacing,10
;   maxOverhangAngle,45
;   supportAngles,45
;   temperatureName,Primary Extruder,Hotbed
;   temperatureNumber,0,0
;   temperatureSetpointCount,1,1
;   temperatureSetpointLayers,1,1
;   temperatureSetpointTemperatures,255,100
;   temperatureStabilizeAtStartup,1,0
;   temperatureHeatedBed,0,1
;   temperatureRelayBetweenLayers,0,0
;   temperatureRelayBetweenLoops,0,0
;   fanLayers,1,2
;   fanSpeeds,0,40
;   blipFanToFullPower,1
;   adjustSpeedForCooling,0
;   minSpeedLayerTime,15
;   minCoolingSpeedSlowdown,30
;   increaseFanForCooling,1
;   minFanLayerTime,20
;   maxCoolingFanSpeed,40
;   increaseFanForBridging,1
;   bridgingFanSpeed,100
;   use5D,1
;   relativeEdistances,0
;   allowEaxisZeroing,1
;   independentExtruderAxes,0
;   includeM10123,0
;   stickySupport,1
;   applyToolheadOffsets,0
;   gcodeXoffset,0
;   gcodeYoffset,0
;   gcodeZoffset,0
;   overrideMachineDefinition,1
;   machineTypeOverride,0
;   strokeXoverride,215
;   strokeYoverride,215
;   strokeZoverride,150
;   originOffsetXoverride,0
;   originOffsetYoverride,0
;   originOffsetZoverride,0
;   homeXdirOverride,-1
;   homeYdirOverride,-1
;   homeZdirOverride,-1
;   flipXoverride,1
;   flipYoverride,-1
;   flipZoverride,1
;   toolheadOffsets,0,0|0,0|0,0|0,0|0,0|0,0
;   overrideFirmwareConfiguration,1
;   firmwareTypeOverride,RepRap (Marlin/Repetier/Sprinter)
;   GPXconfigOverride,r2
;   baudRateOverride,115200
;   overridePrinterModels,0
;   printerModelsOverride
;   startingGcode,G28 ; home all axes,G1 X0 Z0.3;,G92 E0 X0 Z0  ; reset extrusion distance,G1 Z0 Y100 E20 F600 ; prime nozzle
;   layerChangeGcode,
;   retractionGcode,
;   toolChangeGcode,
;   endingGcode,G1 Y215 Z150 F800,G28 X0 ; home X axis,M106 S0 ; turn off fan,M104 S0 ; turn off extruder,M140 S0 ; turn off bed,M84 ; disable motors
;   exportFileFormat,gcode
;   celebration,0
;   celebrationSong,Random Song
;   postProcessing,
;   defaultSpeed,4800
;   outlineUnderspeed,0.6
;   solidInfillUnderspeed,0.6
;   supportUnderspeed,0.6
;   rapidXYspeed,9000
;   rapidZspeed,900
;   minBridgingArea,45
;   bridgingExtraInflation,0
;   bridgingExtrusionMultiplier,1
;   bridgingSpeedMultiplier,0.5
;   useFixedBridgingAngle,0
;   fixedBridgingAngle,0
;   applyBridgingToPerimeters,0
;   filamentDiameters,1.75|1.75|1.75|1.75|1.75|1.75
;   filamentPricesPerKg,46|46|46|46|46|46
;   filamentDensities,1.25|1.25|1.25|1.25|1.25|1.25
;   useMinPrintHeight,0
;   minPrintHeight,19
;   useMaxPrintHeight,0
;   maxPrintHeight,0
;   useDiaphragm,0
;   diaphragmLayerInterval,20
;   robustSlicing,0
;   mergeAllIntoSolid,0
;   onlyRetractWhenCrossingOutline,1
;   retractBetweenLayers,1
;   useRetractionMinTravel,0
;   retractionMinTravel,3
;   retractWhileWiping,0
;   onlyWipeOutlines,1
;   avoidCrossingOutline,0
;   maxMovementDetourFactor,3
;   toolChangeRetractionDistance,12
;   toolChangeExtraRestartDistance,-0.5
;   toolChangeRetractionSpeed,600
;   externalThinWallType,1
;   internalThinWallType,1
;   thinWallAllowedOverlapPercentage,10
;   singleExtrusionMinLength,1
;   singleExtrusionMinPrintingWidthPercentage,50
;   singleExtrusionMaxPrintingWidthPercentage,200
;   singleExtrusionEndpointExtension,0.2
;   horizontalSizeCompensation,0
G90
M82
M106 S255
G4 P500
M106 S0
M140 S100
M104 S255 T0
M109 S255 T0
G28 ; home all axes
G1 X0 Z0.3;
G92 E0 X0 Z0  ; reset extrusion distance
G1 Z0 Y100 E20 F600 ; prime nozzle
G92 E0
G1 E-5.0000 F1500
G1 Z0.300 F900
; process Process1
; layer 1, Z = 0.300
M106 S255
G4 P500
M106 S102
T0
; tool H0.300 W0.400
; skirt
G1 X95.927 Y94.199 F9000
G1 E0.0000 F450
G92 E0
G1 X115.223 Y94.199 E0.9627 F3840
G1 X117.449 Y96.425 E1.1197
G1 X117.449 Y119.573 E2.2746
G1 X115.223 Y121.799 E2.4317
G1 X95.927 Y121.799 E3.3943
G1 X93.701 Y119.573 E3.5514
G1 X93.701 Y96.425 E4.7063
G1 X95.573 Y94.553 E4.8384
G1 X95.927 Y94.199 F3840
G1 X96.093 Y94.599 F9000
G92 E0
G1 X115.057 Y94.599 E0.9462 F3840
G1 X117.049 Y96.591 E1.0867
G1 X117.049 Y119.407 E2.2250
G1 X115.057 Y121.399 E2.3655
G1 X96.093 Y121.399 E3.3117
G1 X94.101 Y119.407 E3.4522
G1 X94.101 Y96.591 E4.5905
G1 X95.739 Y94.953 E4.7061
G1 X96.093 Y94.599 F3840
G1 X96.258 Y94.999 F9000
G92 E0
G1 X114.892 Y94.999 E0.9296 F3840
G1 X116.649 Y96.756 E1.0536
G1 X116.649 Y119.242 E2.1754
G1 X114.892 Y120.999 E2.2994
G1 X96.258 Y120.999 E3.2290
G1 X94.501 Y119.242 E3.3530
G1 X94.501 Y96.756 E4.4748
G1 X95.905 Y95.353 E4.5739
G1 X96.258 Y94.999 F3840
G1 X96.424 Y95.399 F9000
G92 E0
G1 X114.726 Y95.399 E0.9131 F3840
G1 X116.249 Y96.922 E1.0205
G1 X116.249 Y119.076 E2.1258
G1 X114.726 Y120.599 E2.2333
G1 X96.424 Y120.599 E3.1464
G1 X94.901 Y119.076 E3.2538
G1 X94.901 Y96.922 E4.3591
G1 X96.070 Y95.753 E4.4416
G1 X96.424 Y95.399 F3840
G1 X96.590 Y95.799 F9000
G92 E0
G1 X114.560 Y95.799 E0.8966 F3840
G1 X115.849 Y97.088 E0.9875
G1 X115.849 Y118.910 E2.0762
G1 X114.560 Y120.199 E2.1671
G1 X96.590 Y120.199 E3.0637
G1 X95.301 Y118.910 E3.1546
G1 X95.301 Y97.088 E4.2434
G1 X96.236 Y96.153 E4.3093
G1 X96.590 Y95.799 F3840
G1 X96.755 Y96.199 F9000
G92 E0
G1 X114.395 Y96.199 E0.8800 F3840
G1 X115.449 Y97.253 E0.9544
G1 X115.449 Y118.745 E2.0266
G1 X114.395 Y119.799 E2.1010
G1 X96.755 Y119.799 E2.9810
G1 X95.701 Y118.745 E3.0554
G1 X95.701 Y97.253 E4.1276
G1 X96.402 Y96.553 E4.1771
G1 X96.755 Y96.199 F3840
G1 X96.921 Y96.599 F9000
G92 E0
G1 X114.229 Y96.599 E0.8635 F3840
G1 X115.049 Y97.419 E0.9214
G1 X115.049 Y118.579 E1.9770
G1 X114.229 Y119.399 E2.0349
G1 X96.921 Y119.399 E2.8984
G1 X96.101 Y118.579 E2.9562
G1 X96.101 Y97.419 E4.0119
G1 X96.568 Y96.953 E4.0448
G1 X96.921 Y96.599 F3840
G1 X97.087 Y96.999 F9000
G92 E0
G1 X114.063 Y96.999 E0.8470 F3840
G1 X114.649 Y97.585 E0.8883
G1 X114.649 Y118.413 E1.9274
G1 X114.063 Y118.999 E1.9688
G1 X97.087 Y118.999 E2.8157
G1 X96.501 Y118.413 E2.8570
G1 X96.501 Y97.585 E3.8962
G1 X96.733 Y97.353 E3.9126
G1 X97.087 Y96.999 F3840
G1 X97.252 Y97.399 F9000
G92 E0
G1 X113.898 Y97.399 E0.8304 F3840
G1 X114.249 Y97.750 E0.8552
G1 X114.249 Y118.248 E1.8778
G1 X113.898 Y118.599 E1.9026
G1 X97.252 Y118.599 E2.7331
G1 X96.901 Y118.248 E2.7579
G1 X96.901 Y97.753 E3.7803
G1 X96.901 Y97.750 F3840
G1 X97.252 Y97.399 F3840
G1 X97.418 Y97.799 F9000
G92 E0
G1 X113.732 Y97.799 E0.8139 F3840
G1 X113.849 Y97.916 E0.8222
G1 X113.849 Y118.082 E1.8282
G1 X113.732 Y118.199 E1.8365
G1 X97.418 Y118.199 E2.6504
G1 X97.301 Y118.082 E2.6587
G1 X97.301 Y98.250 E3.6481
G1 X97.301 Y97.916 F3840
G1 X97.418 Y97.799 F3840
G92 E0
G1 E-5.0000 F1500
; inner perimeter
G1 X98.101 Y98.599 F9000
G1 E0.0000 F1500
G92 E0
G1 X113.049 Y98.599 E0.7458 F3072
G1 X113.049 Y117.399 E1.6837
G1 X98.101 Y117.399 E2.4295
G1 X98.101 Y99.099 E3.3425
G1 X98.101 Y98.599 F3072
; outer perimeter
G1 X97.701 Y98.199 F9000
G92 E0
G1 X113.449 Y98.199 E0.7857 F2304
G1 X113.449 Y117.799 E1.7635
G1 X97.701 Y117.799 E2.5492
G1 X97.701 Y98.699 E3.5021
G1 X97.701 Y98.199 F2304
G92 E0
G1 E-5.0000 F1500
G1 X102.701 Y98.199 F4800
; layer 2, Z = 0.600
; inner perimeter
G1 X98.101 Y98.599 F9000
G1 Z0.600 F900
G1 E0.0000 F1500
G92 E0
G1 X113.349 Y98.599 E0.7607 F3840
G1 X113.349 Y117.399 E1.6987
G1 X98.101 Y117.399 E2.4594
G1 X98.101 Y99.099 E3.3724
G1 X98.101 Y98.599 F3840
; outer perimeter
G1 X97.701 Y98.199 F9000
G92 E0
G1 X113.749 Y98.199 E0.8006 F2880
G1 X113.749 Y117.799 E1.7785
G1 X97.701 Y117.799 E2.5791
G1 X97.701 Y98.699 E3.5320
G1 X97.701 Y98.199 F2880
G92 E0
G1 E-5.0000 F1500
G1 X102.701 Y98.199 F4800
; layer 3, Z = 0.900
; inner perimeter
G1 X98.101 Y98.599 F9000
G1 Z0.900 F900
G1 E0.0000 F1500
G92 E0
G1 X113.649 Y98.599 E0.7757 F3840
G1 X113.649 Y117.399 E1.7136
G1 X98.101 Y117.399 E2.4894
G1 X98.101 Y99.099 E3.4024
G1 X98.101 Y98.599 F3840
; outer perimeter
G1 X97.701 Y98.199 F9000
G92 E0
G1 X114.049 Y98.199 E0.8156 F2880
G1 X114.049 Y117.799 E1.7935
G1 X97.701 Y117.799 E2.6091
G1 X97.701 Y98.699 E3.5620
G1 X97.701 Y98.199 F2880
G92 E0
G1 E-5.0000 F1500
G1 X102.701 Y98.199 F4800
; layer 4, Z = 1.200
; inner perimeter
G1 X98.101 Y98.599 F9000
G1 Z1.200 F900
G1 E0.0000 F1500
G92 E0
G1 X113.950 Y98.599 E0.7907 F3840
G1 X113.950 Y117.399 E1.7286
G1 X98.101 Y117.399 E2.5193
G1 X98.101 Y99.099 E3.4323
G1 X98.101 Y98.599 F3840
; outer perimeter
G1 X97.701 Y98.199 F9000
G92 E0
G1 X114.350 Y98.199 E0.8306 F2880
G1 X114.350 Y117.799 E1.8084
G1 X97.701 Y117.799 E2.6390
G1 X97.701 Y98.699 E3.5919
G1 X97.701 Y98.199 F2880
G92 E0
G1 E-5.0000 F1500
G1 X102.701 Y98.199 F4800
; layer 5, Z = 1.500
; inner perimeter
G1 X98.101 Y98.599 F9000
G1 Z1.500 F900
G1 E0.0000 F1500
G92 E0
G1 X114.250 Y98.599 E0.8057 F3840
G1 X114.250 Y117.399 E1.7436
G1 X98.101 Y117.399 E2.5493
G1 X98.101 Y99.099 E3.4622
G1 X98.101 Y98.599 F3840
; outer perimeter
G1 X97.701 Y98.199 F9000
G92 E0
G1 X114.650 Y98.199 E0.8456 F2880
G1 X114.650 Y117.799 E1.8234
G1 X97.701 Y117.799 E2.6690
G1 X97.701 Y98.699 E3.6219
G1 X97.701 Y98.199 F2880
G92 E0
G1 E-5.0000 F1500
G1 X102.701 Y98.199 F4800
; layer 6, Z = 1.800
; inner perimeter
G1 X98.101 Y98.599 F9000
G1 Z1.800 F900
G1 E0.0000 F1500
G92 E0
G1 X114.550 Y98.599 E0.8206 F3840
G1 X114.550 Y117.399 E1.7586
G1 X98.101 Y117.399 E2.5792
G1 X98.101 Y99.099 E3.4922
G1 X98.101 Y98.599 F3840
; outer perimeter
G1 X97.701 Y98.199 F9000
G92 E0
G1 X114.950 Y98.199 E0.8605 F2880
G1 X114.950 Y117.799 E1.8384
G1 X97.701 Y117.799 E2.6989
G1 X97.701 Y98.699 E3.6518
G1 X97.701 Y98.199 F2880
G92 E0
G1 E-5.0000 F1500
G1 X102.701 Y98.199 F4800
; layer 7, Z = 2.100
; inner perimeter
G1 X98.101 Y98.599 F9000
G1 Z2.100 F900
G1 E0.0000 F1500
G92 E0
G1 X114.850 Y98.599 E0.8356 F3840
G1 X114.850 Y117.399 E1.7735
G1 X98.101 Y117.399 E2.6092
G1 X98.101 Y99.099 E3.5221
G1 X98.101 Y98.599 F3840
; outer perimeter
G1 X97.701 Y98.199 F9000
G92 E0
G1 X115.250 Y98.199 E0.8755 F2880
G1 X115.250 Y117.799 E1.8534
G1 X97.701 Y117.799 E2.7289
G1 X97.701 Y98.699 E3.6818
G1 X97.701 Y98.199 F2880
G92 E0
G1 E-5.0000 F1500
G1 X102.701 Y98.199 F4800
; layer 8, Z = 2.400
; inner perimeter
G1 X103.205 Y98.599 F9000
G1 Z2.400 F900
G1 E0.0000 F1500
G92 E0
G1 X105.963 Y98.599 E0.1376 F3840
G1 X105.966 Y97.601 E0.1874
G1 X107.807 Y97.601 E0.2793
G1 X107.806 Y98.599 E0.3291
G1 X110.885 Y98.599 E0.4827
G1 X110.888 Y97.601 E0.5324
G1 X112.729 Y97.601 E0.6243
G1 X112.728 Y98.599 E0.6741
G1 X115.150 Y98.599 E0.7949
G1 X115.150 Y117.399 E1.7329
G1 X98.101 Y117.399 E2.5834
G1 X98.101 Y98.599 E3.5214
G1 X100.717 Y98.599 E3.6519
G1 X100.717 Y97.601 E3.7017
G1 X103.205 Y97.601 E3.8258
G1 X103.205 Y98.099 E3.8507
G1 X103.205 Y98.599 F3840
; outer perimeter
G1 X103.605 Y98.199 F9000
G92 E0
G1 X105.564 Y98.199 E0.0978 F2880
G1 X105.567 Y97.201 E0.1475
G1 X108.208 Y97.201 E0.2793
G1 X108.207 Y98.199 E0.3291
G1 X110.486 Y98.199 E0.4428
G1 X110.489 Y97.201 E0.4926
G1 X113.130 Y97.201 E0.6243
G1 X113.129 Y98.199 E0.6741
G1 X115.550 Y98.199 E0.7949
G1 X115.550 Y117.799 E1.7728
G1 X97.701 Y117.799 E2.6633
G1 X97.701 Y98.199 E3.6411
G1 X100.317 Y98.199 E3.7716
G1 X100.317 Y97.201 E3.8214
G1 X103.605 Y97.201 E3.9855
G1 X103.605 Y97.699 E4.0103
G1 X103.605 Y98.199 F2880
G92 E0
G1 E-5.0000 F1500
G1 X105.564 Y98.199 F4800
G1 X105.567 Y97.201 F4800
G1 X107.610 Y97.201 F4800
; layer 9, Z = 2.700
; inner perimeter
G1 X108.079 Y97.601 F9000
G1 Z2.700 F900
G1 E0.0000 F1500
G92 E0
G1 X108.079 Y98.599 E0.0498 F3840
G1 X110.611 Y98.599 E0.1761
G1 X110.611 Y97.601 E0.2259
G1 X113.001 Y97.601 E0.3451
G1 X113.001 Y98.599 E0.3949
G1 X115.450 Y98.599 E0.5171
G1 X115.450 Y117.399 E1.4550
G1 X98.101 Y117.399 E2.3206
G1 X98.101 Y98.599 E3.2585
G1 X100.717 Y98.599 E3.3890
G1 X100.717 Y97.601 E3.4388
G1 X103.205 Y97.601 E3.5630
G1 X103.205 Y98.599 E3.6127
G1 X105.689 Y98.599 E3.7367
G1 X105.689 Y97.601 E3.7864
G1 X107.579 Y97.601 E3.8808
G1 X108.079 Y97.601 F3840
; outer perimeter
G1 X108.479 Y97.201 F9000
G92 E0
G1 X108.479 Y98.199 E0.0498 F2880
G1 X110.211 Y98.199 E0.1362
G1 X110.211 Y97.201 E0.1860
G1 X113.401 Y97.201 E0.3451
G1 X113.401 Y98.199 E0.3949
G1 X115.850 Y98.199 E0.5171
G1 X115.850 Y117.799 E1.4949
G1 X97.701 Y117.799 E2.4004
G1 X97.701 Y98.199 E3.3783
G1 X100.317 Y98.199 E3.5088
G1 X100.317 Y97.201 E3.5586
G1 X103.605 Y97.201 E3.7226
G1 X103.605 Y98.199 E3.7724
G1 X105.289 Y98.199 E3.8564
G1 X105.289 Y97.201 E3.9062
G1 X107.979 Y97.201 E4.0404
G1 X108.479 Y97.201 F2880
G92 E0
G1 E-5.0000 F1500
G1 X108.479 Y98.199 F4800
G1 X110.211 Y98.199 F4800
G1 X110.211 Y97.201 F4800
G1 X111.483 Y97.201 F4800
; layer 10, Z = 3.000
; inner perimeter
G1 X110.561 Y97.601 F9000
G1 Z3.000 F900
G1 E0.0000 F1500
G92 E0
G1 X113.047 Y97.601 E0.1240 F3840
G1 X113.047 Y98.599 E0.1738
G1 X115.750 Y98.599 E0.3087
G1 X115.750 Y117.399 E1.2466
G1 X98.101 Y117.399 E2.1272
G1 X98.101 Y98.599 E3.0651
G1 X100.717 Y98.599 E3.1956
G1 X100.717 Y97.601 E3.2454
G1 X103.205 Y97.601 E3.3695
G1 X103.205 Y98.599 E3.4193
G1 X105.639 Y98.599 E3.5408
G1 X105.639 Y97.601 E3.5905
G1 X108.127 Y97.601 E3.7147
G1 X108.127 Y98.599 E3.7645
G1 X110.561 Y98.599 E3.8859
G1 X110.561 Y98.101 E3.9107
G1 X110.561 Y97.601 F3840
; outer perimeter
G1 X110.161 Y97.201 F9000
G92 E0
G1 X113.447 Y97.201 E0.1639 F2880
G1 X113.447 Y98.199 E0.2137
G1 X116.150 Y98.199 E0.3486
G1 X116.150 Y117.799 E1.3265
G1 X97.701 Y117.799 E2.2469
G1 X97.701 Y98.199 E3.2247
G1 X100.317 Y98.199 E3.3553
G1 X100.317 Y97.201 E3.4050
G1 X103.605 Y97.201 E3.5691
G1 X103.605 Y98.199 E3.6189
G1 X105.239 Y98.199 E3.7004
G1 X105.239 Y97.201 E3.7502
G1 X108.527 Y97.201 E3.9142
G1 X108.527 Y98.199 E3.9640
G1 X110.161 Y98.199 E4.0455
G1 X110.161 Y97.701 E4.0704
G1 X110.161 Y97.201 F2880
G92 E0
G1 E-5.0000 F1500
G1 X113.447 Y97.201 F4800
G1 X113.447 Y98.199 F4800
G1 X114.163 Y98.199 F4800
; layer 11, Z = 3.300
; inner perimeter
