; generated by PrusaSlicer 2.0.0+win64 on 2019-08-07 at 11:25:48

; 

; external perimeters extrusion width = 0.68mm
; perimeters extrusion width = 0.68mm
; infill extrusion width = 0.68mm
; solid infill extrusion width = 0.68mm
; top infill extrusion width = 0.60mm
; first layer extrusion width = 0.63mm

M107
M300
M206 X500
M107
M104 S235
G92 E
M642 W1
M130 T6 U1.3 V80
G1 X-98.0 Y-20.0 Z5.0 F3000
G1 Y-68.0 Z0.3
G1 X-98.0 Y0.0 F500 E20
G92 E
M900 K45 ; Filament gcode
G21 ; set units to millimeters
G90 ; use absolute coordinates
M82 ; use absolute distances for extrusion
G92 E0
G1 Z0.300 F4800.000
G1 E-2.00000 F2400.00000
G92 E0
G1 X12.429 Y0.002 F4800.000
G1 E2.00000 F2400.00000
G1 F900
G1 X12.427 Y10.716 E2.71801
G1 X12.347 Y11.522 E2.77234
G1 X12.164 Y12.312 E2.82667
G1 X11.880 Y13.071 E2.88100
G1 X11.501 Y13.788 E2.93533
G1 X10.594 Y14.938 E3.03347
G1 X9.441 Y15.850 E3.13202
G1 X8.107 Y16.469 E3.23057
G1 X6.672 Y16.760 E3.32870
G1 X-10.285 Y16.775 E4.46515
G1 X-11.843 Y16.506 E4.57111
G1 X-12.584 Y16.226 E4.62420
G1 X-13.289 Y15.852 E4.67770
G1 X-14.452 Y14.932 E4.77707
G1 X-15.370 Y13.760 E4.87686
G1 X-15.985 Y12.411 E4.97623
G1 X-16.267 Y10.949 E5.07602
G1 X-16.278 Y-9.740 E6.46261
G1 X-16.196 Y-10.541 E6.51652
G1 X-16.012 Y-11.324 E6.57044
G1 X-15.729 Y-12.077 E6.62435
G1 X-15.353 Y-12.788 E6.67827
G1 X-14.503 Y-13.881 E6.77105
G1 X-13.439 Y-14.757 E6.86341
G1 X-12.210 Y-15.380 E6.95577
G1 X-10.869 Y-15.721 E7.04855
G1 X-10.023 Y-15.782 E7.10536
G1 X6.154 Y-15.782 E8.18956
G1 X7.239 Y-15.686 E8.26251
G1 X8.296 Y-15.403 E8.33588
G1 X9.283 Y-14.944 E8.40883
G1 X10.180 Y-14.317 E8.48220
G1 X10.952 Y-13.549 E8.55515
G1 X11.578 Y-12.659 E8.62810
G1 X12.045 Y-11.668 E8.70147
G1 X12.330 Y-10.618 E8.77442
G1 X12.431 Y-9.528 E8.84778
G1 X12.429 Y-0.058 E9.48249
G1 E7.48249 F2400.00000
G92 E0
G1 X5.268 Y-8.618 F4800.000
G1 E2.00000 F2400.00000
G1 F900
G1 X5.268 Y9.618 E3.22222
G1 X-9.119 Y9.618 E4.18643
G1 X-9.119 Y-8.618 E5.40866
G1 X5.208 Y-8.618 E6.36885
G1 X5.833 Y-9.184 F4800.000
G1 F900
G1 X5.833 Y10.184 E7.66689
G1 X-9.685 Y10.184 E8.70691
G1 X-9.685 Y-9.184 E10.00495
G1 X5.773 Y-9.184 E11.04095
G1 X5.744 Y-8.794 F4800.000
G1 Z0.600 F4800.000
M104 S235 ; set temperature
G1 X5.493 Y-8.543
G1 F900
G1 X5.493 Y9.543 E12.36028
G1 X-9.044 Y9.543 E13.42068
G1 X-9.044 Y-8.543 E14.74001
G1 X5.433 Y-8.543 E15.79604
G1 E13.79604 F2400.00000
G92 E0
G1 X-9.660 Y-9.159 F4800.000
G1 E2.00000 F2400.00000
G1 F900
G1 X6.108 Y-9.159 E3.15022
G1 X6.108 Y10.159 E4.55936
G1 X-9.660 Y10.159 E5.70957
G1 X-9.660 Y-9.099 E7.11434
G1 X-9.277 Y-9.043 F4800.000
G1 Z0.900 F4800.000
G1 X-9.044 Y-8.543
G1 F900
G1 X5.793 Y-8.543 E8.19665
G1 X5.793 Y9.543 E9.51597
G1 X-9.044 Y9.543 E10.59828
G1 X-9.044 Y-8.483 E11.91323
G1 X-9.660 Y-9.159 F4800.000
G1 F900
G1 X6.409 Y-9.159 E13.08536
G1 X6.409 Y10.159 E14.49450
G1 X-9.660 Y10.159 E15.66662
G1 X-9.660 Y-9.099 E17.07138
G1 X-9.277 Y-9.044 F4800.000
M106 S127.5
G1 Z1.200 F4800.000
G1 X-9.044 Y-8.543
G1 F900
G1 X6.093 Y-8.543 E18.17560
G1 X6.093 Y9.543 E19.49492
G1 X-9.044 Y9.543 E20.59914
G1 X-9.044 Y-8.483 E21.91409
G1 X-9.660 Y-9.159 F4800.000
G1 F900
G1 X6.709 Y-9.159 E23.10812
G1 X6.709 Y10.159 E24.51726
G1 X-9.660 Y10.159 E25.71128
G1 X-9.660 Y-9.099 E27.11605
G1 X-9.277 Y-9.045 F4800.000
G1 Z1.500 F4800.000
G1 X-9.044 Y-8.543
G1 F900
G1 X6.394 Y-8.543 E28.24217
G1 X6.394 Y9.543 E29.56149
G1 X-9.044 Y9.543 E30.68762
G1 X-9.044 Y-8.483 E32.00256
G1 X-9.660 Y-9.159 F4800.000
G1 F900
G1 X7.009 Y-9.159 E33.21850
G1 X7.009 Y10.159 E34.62764
G1 X-9.660 Y10.159 E35.84357
G1 X-9.660 Y-9.099 E37.24833
G1 X-9.276 Y-9.046 F4800.000
G1 Z1.800 F4800.000
G1 X-9.044 Y-8.543
G1 F900
G1 X6.694 Y-8.543 E38.39636
G1 X6.694 Y9.543 E39.71568
G1 X-9.044 Y9.543 E40.86371
G1 X-9.044 Y-8.483 E42.17866
G1 X-9.660 Y-9.159 F4800.000
G1 F900
G1 X7.310 Y-9.159 E43.41650
G1 X7.310 Y10.159 E44.82564
G1 X-9.660 Y10.159 E46.06348
G1 X-9.660 Y-9.099 E47.46824
G1 X-9.276 Y-9.047 F4800.000
G1 Z2.100 F4800.000
G1 X-9.044 Y-8.543
G1 F900
G1 X6.994 Y-8.543 E48.63817
G1 X6.994 Y9.543 E49.95750
G1 X-9.044 Y9.543 E51.12743
G1 X-9.044 Y-8.483 E52.44238
G1 X-9.660 Y-9.159 F4800.000
G1 F900
G1 X7.610 Y-9.159 E53.70212
G1 X7.610 Y10.159 E55.11126
G1 X-9.660 Y10.159 E56.37100
G1 X-9.660 Y-9.099 E57.77577
G1 X-9.276 Y-9.048 F4800.000
G1 Z2.400 F4800.000
G1 X-9.044 Y-8.543
G1 F900
G1 X-6.428 Y-8.543 E57.96659
G1 X-6.428 Y-9.543 E58.03953
G1 X-4.652 Y-9.543 E58.16914
G1 X-4.652 Y-8.543 E58.24208
G1 X-1.176 Y-8.543 E58.49560
G1 X-1.177 Y-9.543 E58.56854
G1 X-0.057 Y-9.543 E58.65025
G1 X-0.059 Y-8.543 E58.72319
G1 X3.746 Y-8.543 E59.00074
G1 X3.745 Y-9.543 E59.07369
G1 X4.872 Y-9.543 E59.15591
G1 X4.871 Y-8.543 E59.22886
G1 X7.295 Y-8.543 E59.40561
G1 X7.295 Y9.543 E60.72494
G1 X-9.044 Y9.543 E61.91678
G1 X-9.044 Y-8.483 E63.23173
G1 E61.23173 F2400.00000
G92 E0
G1 X5.488 Y-9.159 F4800.000
G1 E2.00000 F2400.00000
G1 F900
G1 X7.910 Y-9.159 E2.17671
G1 X7.910 Y10.159 E3.58585
G1 X-9.660 Y10.159 E4.86750
G1 X-9.660 Y-9.159 E6.27664
G1 X-7.044 Y-9.159 E6.46746
G1 X-7.044 Y-9.699 E6.50685
G1 F3600
G1 X-7.044 Y-10.159 E6.52968
G1 X-4.036 Y-10.159 E6.67898
G1 X-4.036 Y-9.699 E6.70181
G1 F900
G1 X-4.036 Y-9.159 E6.74120
G1 X-1.792 Y-9.159 E6.90487
G1 X-1.793 Y-9.699 E6.94426
G1 F3600
G1 X-1.793 Y-10.159 E6.96709
G1 X0.560 Y-10.159 E7.08389
G1 X0.559 Y-9.699 E7.10672
G1 F900
G1 X0.558 Y-9.159 E7.14611
G1 X3.130 Y-9.159 E7.33371
G1 X3.129 Y-9.699 E7.37310
G1 F3600
G1 X3.129 Y-10.159 E7.39593
G1 X5.489 Y-10.159 E7.51304
G1 X5.488 Y-9.699 E7.53587
G1 F900
G1 X5.488 Y-9.219 E7.57089
G1 Z2.700 F4800.000
G1 E5.57089 F2400.00000
G92 E0
G1 X-4.652 Y-8.543 F4800.000
G1 E2.00000 F2400.00000
G1 F900
G1 X-1.457 Y-8.543 E2.23304
G1 X-1.457 Y-9.543 E2.30599
G1 X0.223 Y-9.543 E2.42851
G1 X0.223 Y-8.543 E2.50145
G1 X3.465 Y-8.543 E2.73796
G1 X3.465 Y-9.543 E2.81091
G1 X5.145 Y-9.543 E2.93341
G1 X5.145 Y-8.543 E3.00636
G1 X7.595 Y-8.543 E3.18507
G1 X7.595 Y9.543 E4.50440
G1 X-9.044 Y9.543 E5.71814
G1 X-9.044 Y-8.543 E7.03747
G1 X-6.428 Y-8.543 E7.22829
G1 X-6.428 Y-9.543 E7.30124
G1 X-4.652 Y-9.543 E7.43084
G1 X-4.652 Y-8.603 E7.49941
G1 X-4.036 Y-9.159 F4800.000
G1 F900
G1 X-2.072 Y-9.159 E7.64264
G1 X-2.072 Y-10.159 E7.71558
G1 X0.838 Y-10.159 E7.92792
G1 X0.838 Y-9.159 E8.00086
G1 X2.850 Y-9.159 E8.14756
G1 X2.850 Y-10.159 E8.22050
G1 X5.760 Y-10.159 E8.43281
G1 X5.760 Y-9.159 E8.50575
G1 X8.211 Y-9.159 E8.68448
G1 X8.211 Y10.159 E10.09362
G1 X-9.660 Y10.159 E11.39718
G1 X-9.660 Y-9.159 E12.80631
G1 X-7.044 Y-9.159 E12.99714
G1 X-7.044 Y-10.159 E13.07008
G1 X-4.036 Y-10.159 E13.28950
G1 X-4.036 Y-9.219 E13.35806
G1 X-3.874 Y-8.793 F4800.000
G1 Z3.000 F4800.000
G1 X-4.652 Y-8.543
G1 F900
G1 X-1.506 Y-8.543 E13.58749
G1 X-1.506 Y-9.543 E13.66044
G1 X0.270 Y-9.543 E13.79004
G1 X0.270 Y-8.543 E13.86298
G1 X3.416 Y-8.543 E14.09241
G1 X3.416 Y-9.543 E14.16536
G1 X5.190 Y-9.543 E14.29481
G1 X5.190 Y-8.543 E14.36776
G1 X7.895 Y-8.543 E14.56506
G1 X7.895 Y9.543 E15.88439
G1 X-9.044 Y9.543 E17.12004
G1 X-9.044 Y-8.543 E18.43936
G1 X-6.428 Y-8.543 E18.63018
G1 X-6.428 Y-9.543 E18.70313
G1 X-4.652 Y-9.543 E18.83273
G1 X-4.652 Y-8.603 E18.90130
G1 X-4.036 Y-9.159 F4800.000
G1 F900
G1 X-2.122 Y-9.159 E19.04092
G1 X-2.122 Y-10.159 E19.11386
G1 X0.886 Y-10.159 E19.33328
G1 X0.886 Y-9.159 E19.40622
G1 X2.800 Y-9.159 E19.54584
G1 X2.800 Y-10.159 E19.61878
G1 X5.806 Y-10.159 E19.83805
G1 X5.806 Y-9.159 E19.91100
G1 X8.511 Y-9.159 E20.10830
G1 X8.511 Y10.159 E21.51744
G1 X-9.660 Y10.159 E22.84290
G1 X-9.660 Y-9.159 E24.25203
G1 X-7.044 Y-9.159 E24.44286
G1 X-7.044 Y-10.159 E24.51580
G1 X-4.036 Y-10.159 E24.73522
G1 X-4.036 Y-9.219 E24.80379
G1 X-3.874 Y-8.793 F4800.000
G1 Z3.300 F4800.000
G1 X-4.652 Y-8.543
G1 F900
G1 X-1.506 Y-8.543 E25.03321
G1 X-1.506 Y-9.543 E25.10616
G1 X0.270 Y-9.543 E25.23576
G1 X0.270 Y-8.543 E25.30871
G1 X3.416 Y-8.543 E25.53813
G1 X3.416 Y-9.543 E25.61108
G1 X5.190 Y-9.543 E25.74054
G1 X5.190 Y-8.543 E25.81348
G1 X8.196 Y-8.543 E26.03269
G1 X8.196 Y9.543 E27.35201
G1 X-9.044 Y9.543 E28.60957
G1 X-9.044 Y-8.543 E29.92889
G1 X-6.428 Y-8.543 E30.11972
G1 X-6.428 Y-9.543 E30.19266
G1 X-4.652 Y-9.543 E30.32226
G1 X-4.652 Y-8.603 E30.39083
G1 X-4.036 Y-9.159 F4800.000
G1 F900
G1 X-2.122 Y-9.159 E30.53045
G1 X-2.122 Y-10.159 E30.60339
G1 X0.886 Y-10.159 E30.82281
G1 X0.886 Y-9.159 E30.89575
G1 X2.800 Y-9.159 E31.03537
G1 X2.800 Y-10.159 E31.10831
G1 X5.806 Y-10.159 E31.32758
G1 X5.806 Y-9.159 E31.40053
G1 X8.811 Y-9.159 E31.61974
G1 X8.811 Y10.159 E33.02887
G1 X-9.660 Y10.159 E34.37624
G1 X-9.660 Y-9.159 E35.78538
G1 X-7.044 Y-9.159 E35.97620
G1 X-7.044 Y-10.159 E36.04914
G1 X-4.036 Y-10.159 E36.26856
G1 X-4.036 Y-9.219 E36.33713
G1 X-3.874 Y-8.793 F4800.000
G1 Z3.600 F4800.000
G1 E34.33713 F2400.00000
G92 E0
G1 X-9.044 Y-8.543 F4800.000
G1 E2.00000 F2400.00000
G1 F900
G1 X8.496 Y-8.543 E3.27946
G1 X8.496 Y9.543 E4.59878
G1 X-9.044 Y9.543 E5.87824
G1 X-9.044 Y-8.483 E7.19319
G1 E5.19319 F2400.00000
G92 E0
G1 X-6.498 Y-9.159 F4800.000
G1 E2.00000 F2400.00000
G1 F900
G1 X-2.122 Y-9.159 E2.31920
G1 X-2.122 Y-10.159 E2.39215
G1 X-1.576 Y-10.159 E2.43198
G1 X-1.576 Y-9.159 E2.50492
G1 X0.340 Y-9.159 E2.64468
G1 X0.340 Y-10.159 E2.71763
G1 X0.886 Y-10.159 E2.75745
G1 X0.886 Y-9.159 E2.83040
G1 X2.800 Y-9.159 E2.97001
G1 X2.800 Y-10.159 E3.04296
G1 X3.346 Y-10.159 E3.08279
G1 X3.346 Y-9.159 E3.15573
G1 X5.260 Y-9.159 E3.29534
G1 X5.260 Y-10.159 E3.36829
G1 X5.806 Y-10.159 E3.40812
G1 X5.806 Y-9.159 E3.48106
G1 X9.111 Y-9.159 E3.72217
G1 X9.111 Y10.159 E5.13131
G1 X-9.660 Y10.159 E6.50058
G1 X-9.660 Y-9.159 E7.90972
G1 X-7.044 Y-9.159 E8.10054
G1 X-7.044 Y-10.159 E8.17349
G1 X-6.498 Y-10.159 E8.21331
G1 X-6.498 Y-9.219 E8.28188
G1 X-6.432 Y-8.765 F4800.000
G1 Z3.900 F4800.000
G1 E6.28188 F2400.00000
G92 E0
G1 X-9.044 Y-8.543 F4800.000
G1 E2.00000 F2400.00000
G1 F900
G1 X8.796 Y-8.543 E3.30136
G1 X8.796 Y9.543 E4.62069
G1 X-9.044 Y9.543 E5.92205
G1 X-9.044 Y-8.483 E7.23700
G1 E5.23700 F2400.00000
G92 E0
G1 X-1.576 Y-9.159 F4800.000
G1 E2.00000 F2400.00000
G1 F900
G1 X0.340 Y-9.159 E2.13976
G1 X0.340 Y-10.159 E2.21271
G1 X0.886 Y-10.159 E2.25253
G1 X0.886 Y-9.159 E2.32548
G1 X2.800 Y-9.159 E2.46509
G1 X2.800 Y-10.159 E2.53804
G1 X3.346 Y-10.159 E2.57786
G1 X3.346 Y-9.159 E2.65081
G1 X5.260 Y-9.159 E2.79042
G1 X5.260 Y-10.159 E2.86337
G1 X5.806 Y-10.159 E2.90320
G1 X5.806 Y-9.159 E2.97614
G1 X9.412 Y-9.159 E3.23916
G1 X9.412 Y10.159 E4.64830
G1 X-9.660 Y10.159 E6.03947
G1 X-9.660 Y-9.159 E7.44861
G1 X-7.044 Y-9.159 E7.63943
G1 X-7.044 Y-10.159 E7.71238
G1 X-6.498 Y-10.159 E7.75220
G1 X-6.498 Y-9.159 E7.82515
G1 X-2.122 Y-9.159 E8.14435
G1 X-2.122 Y-10.159 E8.21730
G1 X-1.576 Y-10.159 E8.25712
G1 X-1.576 Y-9.219 E8.32569
G1 X-1.510 Y-8.765 F4800.000
G1 Z4.200 F4800.000
G1 E6.32569 F2400.00000
G92 E0
G1 X-9.044 Y-8.543 F4800.000
G1 E2.00000 F2400.00000
G1 F900
G1 X9.044 Y-8.543 E3.31947
G1 X9.044 Y9.543 E4.63880
G1 X-9.044 Y9.543 E5.95827
G1 X-9.044 Y-8.483 E7.27322
G1 E5.27322 F2400.00000
G92 E0
G1 X-6.498 Y-9.159 F4800.000
G1 E2.00000 F2400.00000
G1 F900
G1 X0.340 Y-9.159 E2.49879
G1 X0.340 Y-10.159 E2.57174
G1 X0.886 Y-10.159 E2.61157
G1 X0.886 Y-9.159 E2.68451
G1 X5.260 Y-9.159 E3.00357
G1 X5.260 Y-10.159 E3.07651
G1 X5.806 Y-10.159 E3.11634
G1 X5.806 Y-9.159 E3.18928
G1 X9.660 Y-9.159 E3.47041
G1 X9.660 Y10.159 E4.87955
G1 X-9.660 Y10.159 E6.28883
G1 X-9.660 Y-9.159 E7.69797
G1 X-7.044 Y-9.159 E7.88879
G1 X-7.044 Y-10.159 E7.96174
G1 X-6.498 Y-10.159 E8.00156
G1 X-6.498 Y-9.219 E8.07013
G1 X-6.432 Y-8.765 F4800.000
G1 Z4.500 F4800.000
G1 E6.07013 F2400.00000
G92 E0
G1 X-9.044 Y-8.543 F4800.000
G1 E2.00000 F2400.00000
G1 F900
G1 X9.044 Y-8.543 E3.31947
G1 X9.044 Y9.543 E4.63880
G1 X-9.044 Y9.543 E5.95827
G1 X-9.044 Y-8.483 E7.27322
G1 E5.27322 F2400.00000
G92 E0
G1 X-6.498 Y-9.159 F4800.000
G1 E2.00000 F2400.00000
G1 F900
G1 X0.340 Y-9.159 E2.49879
G1 X0.340 Y-10.159 E2.57174
G1 X0.886 Y-10.159 E2.61157
G1 X0.886 Y-9.159 E2.68451
G1 X5.260 Y-9.159 E3.00357
G1 X5.260 Y-10.159 E3.07651
G1 X5.806 Y-10.159 E3.11634
G1 X5.806 Y-9.159 E3.18928
G1 X9.660 Y-9.159 E3.47041
G1 X9.660 Y10.159 E4.87955
G1 X-9.660 Y10.159 E6.28883
G1 X-9.660 Y-9.159 E7.69797
G1 X-7.044 Y-9.159 E7.88879
G1 X-7.044 Y-10.159 E7.96174
G1 X-6.498 Y-10.159 E8.00156
G1 X-6.498 Y-9.219 E8.07013
G1 X-6.432 Y-8.765 F4800.000
G1 Z4.800 F4800.000
G1 X-5.140 Y-8.543
G1 F900
G1 X-0.280 Y-8.543 E8.42458
G1 X-0.280 Y-9.543 E8.49753
G1 X0.269 Y-9.543 E8.53764
G1 X0.269 Y-8.543 E8.61058
G1 X3.416 Y-8.543 E8.84011
G1 X3.416 Y-9.543 E8.91305
G1 X5.190 Y-9.543 E9.04251
G1 X5.190 Y-8.543 E9.11545
G1 X9.044 Y-8.543 E9.39658
G1 X9.044 Y9.543 E10.71591
G1 X-9.044 Y9.543 E12.03538
G1 X-9.044 Y-8.543 E13.35471
G1 X-6.428 Y-8.543 E13.54553
G1 X-6.428 Y-9.543 E13.61847
G1 X-5.140 Y-9.543 E13.71248
G1 X-5.140 Y-8.603 E13.78105
G1 X-4.524 Y-9.159 F4800.000
G1 F900
G1 X-0.896 Y-9.159 E14.04569
G1 X-0.896 Y-9.699 E14.08508
G1 F3600
G1 X-0.896 Y-10.159 E14.10791
G1 X-0.200 Y-10.159 E14.14245
G1 F900
G1 X0.885 Y-10.159 E14.22163
G1 X0.885 Y-9.159 E14.29457
G1 X2.800 Y-9.159 E14.43426
G1 X2.800 Y-9.699 E14.47365
G1 F3600
G1 X2.800 Y-10.159 E14.49648
G1 X4.720 Y-10.159 E14.59178
G1 F900
G1 X5.806 Y-10.159 E14.67100
G1 X5.806 Y-9.159 E14.74394
G1 X9.660 Y-9.159 E15.02507
G1 X9.660 Y10.159 E16.43421
G1 X-9.660 Y10.159 E17.84349
G1 X-9.660 Y-9.159 E19.25263
G1 X-7.044 Y-9.159 E19.44345
G1 X-7.044 Y-10.159 E19.51639
G1 X-5.958 Y-10.159 E19.59561
G1 F3600
G1 X-4.524 Y-10.159 E19.66678
G1 X-4.524 Y-9.699 E19.68962
G1 F900
G1 X-4.524 Y-9.219 E19.72463
G1 Z5.100 F4800.000
G1 X-4.730 Y-8.543
G1 F900
G1 X-0.280 Y-8.543 E20.04918
G1 X-0.280 Y-9.543 E20.12213
G1 X0.191 Y-9.543 E20.15652
G1 X0.191 Y-8.543 E20.22947
G1 X3.416 Y-8.543 E20.46467
G1 X3.416 Y-9.543 E20.53762
G1 X5.190 Y-9.543 E20.66707
G1 X5.190 Y-8.543 E20.74002
G1 X9.044 Y-8.543 E21.02115
G1 X9.044 Y9.543 E22.34047
G1 X-9.044 Y9.543 E23.65994
G1 X-9.044 Y-8.543 E24.97927
G1 X-6.428 Y-8.543 E25.17009
G1 X-6.428 Y-9.543 E25.24304
G1 X-4.728 Y-9.543 E25.36709
G1 X-4.730 Y-8.603 E25.43566
G1 X-4.113 Y-9.159 F4800.000
G1 F900
G1 X-0.896 Y-9.159 E25.67031
G1 X-0.896 Y-10.159 E25.74325
G1 X0.807 Y-10.159 E25.86746
G1 X0.807 Y-9.159 E25.94040
G1 X2.800 Y-9.159 E26.08580
G1 X2.800 Y-10.159 E26.15874
G1 X5.806 Y-10.159 E26.37801
G1 X5.806 Y-9.159 E26.45096
G1 X9.660 Y-9.159 E26.73208
G1 X9.660 Y10.159 E28.14122
G1 X-9.660 Y10.159 E29.55051
G1 X-9.660 Y-9.159 E30.95964
G1 X-7.044 Y-9.159 E31.15047
G1 X-7.044 Y-10.159 E31.22341
G1 X-4.112 Y-10.159 E31.43728
G1 X-4.113 Y-9.219 E31.50585
G1 X-3.952 Y-8.793 F4800.000
G1 Z5.400 F4800.000
G1 X-4.653 Y-8.543
G1 F900
G1 X3.416 Y-8.543 E32.09438
G1 X3.416 Y-9.543 E32.16732
G1 X5.190 Y-9.543 E32.29678
G1 X5.190 Y-8.543 E32.36972
G1 X9.044 Y-8.543 E32.65085
G1 X9.044 Y9.543 E33.97018
G1 X-9.044 Y9.543 E35.28965
G1 X-9.044 Y-8.543 E36.60898
G1 X-6.428 Y-8.543 E36.79980
G1 X-6.428 Y-9.543 E36.87274
G1 X-4.652 Y-9.543 E37.00230
G1 X-4.653 Y-8.603 E37.07087
G1 X-4.037 Y-9.159 F4800.000
G1 F900
G1 X-0.896 Y-9.159 E37.29997
G1 X-0.896 Y-10.159 E37.37291
G1 X0.370 Y-10.159 E37.46528
G1 X0.367 Y-9.159 E37.53822
G1 X2.800 Y-9.159 E37.71570
G1 X2.800 Y-10.159 E37.78865
G1 X5.806 Y-10.159 E38.00792
G1 X5.806 Y-9.159 E38.08086
G1 X9.660 Y-9.159 E38.36199
G1 X9.660 Y10.159 E39.77113
G1 X-9.660 Y10.159 E41.18041
G1 X-9.660 Y-9.159 E42.58955
G1 X-7.044 Y-9.159 E42.78037
G1 X-7.044 Y-10.159 E42.85332
G1 X-4.036 Y-10.159 E43.07271
G1 X-4.037 Y-9.219 E43.14127
G1 X-3.875 Y-8.793 F4800.000
G1 Z5.700 F4800.000
G1 X-4.652 Y-8.543
G1 F900
G1 X-0.280 Y-8.543 E43.46013
G1 X-0.280 Y-9.543 E43.53308
G1 X0.185 Y-9.543 E43.56701
G1 X0.185 Y-8.543 E43.63996
G1 X3.416 Y-8.543 E43.87560
G1 X3.416 Y-9.543 E43.94855
G1 X5.119 Y-9.543 E44.07283
G1 X5.119 Y-8.543 E44.14577
G1 X9.044 Y-8.543 E44.43210
G1 X9.044 Y9.543 E45.75142
G1 X-9.044 Y9.543 E47.07090
G1 X-9.044 Y-8.543 E48.39022
G1 X-6.353 Y-8.543 E48.58654
G1 X-6.353 Y-9.543 E48.65949
G1 X-4.652 Y-9.543 E48.78357
G1 X-4.652 Y-8.603 E48.85213
G1 X-4.036 Y-9.159 F4800.000
G1 F900
G1 X-0.896 Y-9.159 E49.08118
